{
 "type": "map",
 "version": "1.10",
 "tiledversion": "1.11.2",
 "orientation": "orthogonal",
 "renderorder": "right-down",
 "infinite": false,
 "width": 105,
 "height": 24,
 "tilewidth": 16,
 "tileheight": 16,
 "compressionlevel": -1,
 "nextlayerid": 5,
 "nextobjectid": 30,
 "properties": [
  {
   "name": "region",
   "type": "string",
   "value": "r03"
  }
 ],
 "tilesets": [
  {
   "firstgid": 1,
   "name": "overworld",
   "image": "../../../assets/tiles/overworld.png",
   "imagewidth": 128,
   "imageheight": 96,
   "tilewidth": 16,
   "tileheight": 16,
   "tilecount": 48,
   "columns": 8,
   "margin": 0,
   "spacing": 0,
   "tiles": [
    {
     "id": 0,
     "type": "grass",
     "properties": [
      {
       "name": "blocking",
       "type": "bool",
       "value": false
      }
     ]
    },
    {
     "id": 1,
     "type": "grass_flower",
     "properties": [
      {
       "name": "blocking",
       "type": "bool",
       "value": false
      }
     ]
    },
    {
     "id": 2,
     "type": "path",
     "properties": [
      {
       "name": "blocking",
       "type": "bool",
       "value": false
      }
     ]
    },
    {
     "id": 3,
     "type": "plaza_stone",
     "properties": [
      {
       "name": "blocking",
       "type": "bool",
       "value": false
      }
     ]
    },
    {
     "id": 4,
     "type": "water",
     "properties": [
      {
       "name": "blocking",
       "type": "bool",
       "value": true
      }
     ]
    },
    {
     "id": 5,
     "type": "well",
     "properties": [
      {
       "name": "blocking",
       "type": "bool",
       "value": true
      }
     ]
    },
    {
     "id": 6,
     "type": "tree",
     "properties": [
      {
       "name": "blocking",
       "type": "bool",
       "value": true
      }
     ]
    },
    {
     "id": 7,
     "type": "bush",
     "properties": [
      {
       "name": "blocking",
       "type": "bool",
       "value": true
      }
     ]
    },
    {
     "id": 8,
     "type": "house_wall",
     "properties": [
      {
       "name": "blocking",
       "type": "bool",
       "value": true
      }
     ]
    },
    {
     "id": 9,
     "type": "house_roof",
     "properties": [
      {
       "name": "blocking",
       "type": "bool",
       "value": true
      }
     ]
    },
    {
     "id": 10,
     "type": "house_door",
     "properties": [
      {
       "name": "blocking",
       "type": "bool",
       "value": false
      }
     ]
    },
    {
     "id": 11,
     "type": "house_window",
     "properties": [
      {
       "name": "blocking",
       "type": "bool",
       "value": true
      }
     ]
    },
    {
     "id": 12,
     "type": "fence",
     "properties": [
      {
       "name": "blocking",
       "type": "bool",
       "value": true
      }
     ]
    },
    {
     "id": 13,
     "type": "wall_stone",
     "properties": [
      {
       "name": "blocking",
       "type": "bool",
       "value": true
      }
     ]
    },
    {
     "id": 14,
     "type": "floor_wood",
     "properties": [
      {
       "name": "blocking",
       "type": "bool",
       "value": false
      }
     ]
    },
    {
     "id": 15,
     "type": "floor_stone",
     "properties": [
      {
       "name": "blocking",
       "type": "bool",
       "value": false
      }
     ]
    },
    {
     "id": 16,
     "type": "stairs",
     "properties": [
      {
       "name": "blocking",
       "type": "bool",
       "value": false
      }
     ]
    },
    {
     "id": 17,
     "type": "clocktower_wall",
     "properties": [
      {
       "name": "blocking",
       "type": "bool",
       "value": true
      }
     ]
    },
    {
     "id": 18,
     "type": "clocktower_door",
     "properties": [
      {
       "name": "blocking",
       "type": "bool",
       "value": false
      }
     ]
    },
    {
     "id": 19,
     "type": "lamp_post",
     "properties": [
      {
       "name": "blocking",
       "type": "bool",
       "value": true
      }
     ]
    },
    {
     "id": 20,
     "type": "crate",
     "properties": [
      {
       "name": "blocking",
       "type": "bool",
       "value": true
      }
     ]
    },
    {
     "id": 21,
     "type": "market_stall",
     "properties": [
      {
       "name": "blocking",
       "type": "bool",
       "value": true
      }
     ]
    },
    {
     "id": 22,
     "type": "flower_bed",
     "properties": [
      {
       "name": "blocking",
       "type": "bool",
       "value": true
      }
     ]
    },
    {
     "id": 23,
     "type": "dark_floor",
     "properties": [
      {
       "name": "blocking",
       "type": "bool",
       "value": false
      }
     ]
    },
    {
     "id": 24,
     "type": "forest_floor",
     "properties": [
      {
       "name": "blocking",
       "type": "bool",
       "value": false
      }
     ]
    },
    {
     "id": 25,
     "type": "fallen_leaves",
     "properties": [
      {
       "name": "blocking",
       "type": "bool",
       "value": false
      }
     ]
    },
    {
     "id": 26,
     "type": "tall_grass",
     "properties": [
      {
       "name": "blocking",
       "type": "bool",
       "value": false
      }
     ]
    },
    {
     "id": 27,
     "type": "stump",
     "properties": [
      {
       "name": "blocking",
       "type": "bool",
       "value": true
      }
     ]
    },
    {
     "id": 28,
     "type": "log",
     "properties": [
      {
       "name": "blocking",
       "type": "bool",
       "value": true
      }
     ]
    },
    {
     "id": 29,
     "type": "mushroom_patch",
     "properties": [
      {
       "name": "blocking",
       "type": "bool",
       "value": false
      }
     ]
    },
    {
     "id": 30,
     "type": "stream",
     "properties": [
      {
       "name": "blocking",
       "type": "bool",
       "value": true
      }
     ]
    },
    {
     "id": 31,
     "type": "stepping_stone",
     "properties": [
      {
       "name": "blocking",
       "type": "bool",
       "value": false
      }
     ]
    },
    {
     "id": 32,
     "type": "signpost_fork",
     "properties": [
      {
       "name": "blocking",
       "type": "bool",
       "value": true
      }
     ]
    },
    {
     "id": 33,
     "type": "pine_tree",
     "properties": [
      {
       "name": "blocking",
       "type": "bool",
       "value": true
      }
     ]
    },
    {
     "id": 34,
     "type": "moss_stone",
     "properties": [
      {
       "name": "blocking",
       "type": "bool",
       "value": true
      }
     ]
    },
    {
     "id": 35,
     "type": "root_floor",
     "properties": [
      {
       "name": "blocking",
       "type": "bool",
       "value": false
      }
     ]
    },
    {
     "id": 36,
     "type": "cave_floor",
     "properties": [
      {
       "name": "blocking",
       "type": "bool",
       "value": false
      }
     ]
    },
    {
     "id": 37,
     "type": "cave_wall",
     "properties": [
      {
       "name": "blocking",
       "type": "bool",
       "value": true
      }
     ]
    },
    {
     "id": 38,
     "type": "cave_wall_top",
     "properties": [
      {
       "name": "blocking",
       "type": "bool",
       "value": true
      }
     ]
    },
    {
     "id": 39,
     "type": "torch_frozen",
     "properties": [
      {
       "name": "blocking",
       "type": "bool",
       "value": true
      }
     ]
    },
    {
     "id": 40,
     "type": "crystal",
     "properties": [
      {
       "name": "blocking",
       "type": "bool",
       "value": true
      }
     ]
    },
    {
     "id": 41,
     "type": "rubble",
     "properties": [
      {
       "name": "blocking",
       "type": "bool",
       "value": true
      }
     ]
    },
    {
     "id": 42,
     "type": "treasure_pile",
     "properties": [
      {
       "name": "blocking",
       "type": "bool",
       "value": true
      }
     ]
    },
    {
     "id": 43,
     "type": "cave_pool",
     "properties": [
      {
       "name": "blocking",
       "type": "bool",
       "value": true
      }
     ]
    },
    {
     "id": 44,
     "type": "mural_wall",
     "properties": [
      {
       "name": "blocking",
       "type": "bool",
       "value": true
      }
     ]
    },
    {
     "id": 45,
     "type": "cave_crack",
     "properties": [
      {
       "name": "blocking",
       "type": "bool",
       "value": false
      }
     ]
    },
    {
     "id": 46,
     "type": "minecart_rail",
     "properties": [
      {
       "name": "blocking",
       "type": "bool",
       "value": false
      }
     ]
    },
    {
     "id": 47,
     "type": "bone_pile",
     "properties": [
      {
       "name": "blocking",
       "type": "bool",
       "value": true
      }
     ]
    }
   ]
  }
 ],
 "layers": [
  {
   "id": 1,
   "name": "ground",
   "type": "tilelayer",
   "x": 0,
   "y": 0,
   "width": 105,
   "height": 24,
   "opacity": 1,
   "visible": true,
   "data": [
   39,39,39,39,39,39,39,39,39,39,39,39,39,39,39,39,39,39,39,39,39,39,39,39,39,39,39,39,39,39,39,39,39,39,39,39,39,39,39,39,39,39,39,39,39,39,39,39,39,39,39,39,39,39,39,39,39,39,39,39,39,39,39,39,39,39,39,39,39,39,39,39,39,39,39,39,39,39,39,39,39,39,39,39,39,39,39,39,39,39,39,39,39,39,39,39,39,39,39,39,39,39,39,39,39,
   39,39,39,39,39,39,39,39,39,39,39,39,39,39,39,39,39,39,39,39,39,39,39,39,39,39,39,39,39,39,39,39,39,39,39,39,39,39,39,39,39,39,39,39,39,39,39,39,39,39,39,39,39,39,39,39,39,39,39,39,39,39,39,39,39,39,39,39,39,39,39,39,39,39,39,39,39,39,39,39,39,39,39,39,39,39,39,39,39,39,39,39,39,39,39,39,39,39,39,39,39,39,39,39,39,
   39,39,39,39,39,39,39,39,39,39,39,39,39,38,39,39,39,39,39,39,39,39,39,39,39,39,39,39,39,39,39,39,39,39,39,39,39,39,39,39,39,39,39,39,39,39,39,39,39,39,39,39,39,39,39,39,39,39,38,38,38,38,38,38,39,39,39,39,39,39,39,39,39,39,39,39,39,39,39,39,39,39,39,39,39,39,39,39,39,39,39,39,39,39,39,39,39,39,39,39,39,39,39,39,39,
   39,39,39,39,39,39,39,39,39,39,39,39,39,37,39,39,39,39,39,39,39,39,39,39,39,39,39,39,39,39,39,39,39,39,39,39,39,39,39,39,39,39,39,39,39,39,39,39,39,39,39,39,39,39,39,39,39,39,37,37,37,37,37,37,38,38,39,39,39,39,39,39,39,39,39,39,39,39,39,39,39,39,39,39,39,39,39,39,39,39,39,39,39,39,39,39,39,39,39,39,39,39,39,39,39,
   39,39,39,39,39,39,39,39,39,39,39,39,39,37,39,39,39,39,39,39,39,39,39,39,39,39,39,39,39,39,39,39,39,39,39,39,39,39,39,38,40,38,38,38,38,40,38,38,38,38,40,38,38,38,38,39,39,39,37,37,37,37,37,37,37,37,39,39,39,39,39,39,39,39,39,39,39,39,39,39,39,39,39,39,39,39,39,39,39,39,39,39,39,39,39,39,39,39,39,39,39,39,39,39,39,
   39,39,39,39,39,39,39,39,39,39,39,39,39,37,39,39,39,39,39,39,40,38,38,38,38,38,40,38,38,38,38,38,39,39,39,39,39,39,39,37,37,37,37,37,37,37,37,37,37,37,37,37,37,37,37,39,39,39,39,39,39,39,39,39,39,37,39,39,39,39,39,39,39,39,39,39,40,38,45,45,45,45,45,45,38,40,39,39,39,39,39,39,39,40,38,38,38,38,38,38,40,39,39,39,39,
   39,39,39,40,38,38,38,40,38,38,39,38,38,37,38,40,38,39,39,39,37,37,37,37,37,37,37,37,37,37,37,37,39,39,39,39,39,39,39,37,37,37,37,37,37,37,37,37,37,37,37,37,37,37,37,39,39,39,39,38,40,38,38,38,38,46,38,38,38,38,40,38,39,39,39,39,37,37,37,37,37,37,37,37,37,37,39,39,39,39,39,39,38,37,37,37,37,37,37,37,37,38,39,39,39,
   39,39,39,37,37,37,37,37,37,37,39,37,37,37,37,37,37,39,39,39,37,39,39,39,39,39,39,39,39,39,39,39,39,39,39,39,39,39,39,37,37,37,37,37,37,37,37,37,37,37,37,37,37,37,37,39,39,39,39,37,37,37,37,37,37,37,37,37,37,37,37,37,39,39,39,39,37,37,37,37,37,37,37,37,37,37,39,39,39,39,39,39,37,37,37,37,37,37,37,37,37,37,39,39,39,
   39,39,39,37,37,37,37,37,37,37,39,37,37,37,37,37,37,39,39,39,37,39,39,38,40,38,38,38,38,38,40,38,39,39,39,39,39,39,39,37,37,37,37,37,37,37,37,37,37,37,37,37,37,37,37,39,39,39,39,37,37,37,44,44,44,44,44,44,44,37,37,37,39,39,39,39,37,37,37,37,37,37,37,37,37,37,39,39,39,39,39,39,37,37,37,37,37,37,37,37,37,37,39,39,39,
   39,39,39,37,37,37,37,37,37,37,39,37,37,37,37,37,37,39,39,39,37,39,39,37,37,37,37,37,37,37,37,37,39,39,39,39,38,39,39,37,37,37,37,37,37,37,37,37,37,37,37,37,37,37,37,39,39,39,39,37,37,44,44,44,44,44,44,44,44,44,37,37,38,38,38,38,37,37,37,37,37,37,37,37,37,37,39,39,39,39,39,39,37,37,37,37,37,37,37,37,37,37,39,39,39,
   38,38,38,37,37,37,37,37,37,37,38,37,37,37,37,37,37,39,39,39,37,38,38,37,37,37,37,37,37,37,37,37,38,38,38,38,37,38,38,37,47,47,47,47,37,47,47,47,47,47,47,47,47,47,47,39,39,39,39,37,37,44,44,44,44,44,44,44,44,44,37,37,37,37,37,37,37,37,37,37,37,37,37,37,37,37,39,39,39,39,39,38,37,37,37,37,37,37,37,37,37,37,39,39,39,
   37,37,37,37,37,37,37,37,37,37,37,37,37,37,37,37,37,39,39,39,37,37,37,37,37,37,37,37,37,37,37,47,47,47,47,37,37,37,37,37,37,37,37,37,37,37,37,37,37,37,37,37,37,37,37,39,39,39,39,37,37,44,44,44,44,44,44,44,44,44,37,37,39,39,39,39,37,37,37,37,37,37,37,37,37,37,38,38,38,38,38,37,37,37,37,37,37,37,37,37,37,37,38,38,39,
   39,39,39,37,37,37,37,37,37,37,39,37,37,37,37,37,37,39,39,40,37,37,37,37,37,37,37,37,37,37,37,37,39,39,39,39,39,39,39,37,37,37,37,37,37,37,37,37,37,37,37,37,37,37,37,38,38,38,38,37,37,37,44,44,44,44,44,44,44,37,37,37,39,39,39,39,37,37,37,37,37,37,37,37,37,37,37,37,37,37,37,37,37,37,37,37,37,37,37,37,37,37,37,37,39,
   39,39,39,37,37,37,37,37,37,37,39,37,37,37,37,37,37,38,38,37,37,37,37,37,39,39,39,39,37,37,37,37,39,39,39,39,39,39,39,37,37,37,37,37,37,37,37,37,37,37,37,37,37,37,37,37,37,37,37,37,37,37,37,37,37,37,37,37,37,37,37,37,39,39,39,39,37,37,37,37,37,37,37,37,37,37,39,39,39,39,39,37,37,37,37,37,37,37,37,37,37,37,39,39,39,
   39,39,39,37,37,37,37,37,37,37,39,37,37,37,37,37,37,37,47,47,47,47,37,37,39,39,39,39,37,37,37,37,39,39,39,39,39,39,39,37,37,37,37,37,37,37,37,37,37,37,37,37,37,37,37,39,39,39,39,37,37,37,37,37,37,37,37,37,37,37,37,37,39,39,39,39,39,39,39,39,39,39,39,39,39,39,39,39,39,39,39,39,37,37,37,37,37,37,37,37,37,37,39,39,39,
   39,39,39,37,37,37,37,37,37,37,39,37,37,37,37,37,37,39,39,37,37,37,37,37,39,39,39,39,37,37,37,37,39,39,39,39,39,39,39,37,37,37,37,37,37,37,37,37,37,37,37,37,37,37,37,39,39,39,39,39,39,39,39,39,39,39,39,39,39,39,39,39,39,39,39,39,39,39,39,39,39,39,39,39,39,39,39,39,39,39,39,39,37,37,37,37,37,37,37,37,37,37,39,39,39,
   39,39,39,39,39,39,39,39,39,39,39,39,39,39,39,39,39,39,39,39,39,39,39,39,39,39,39,39,39,39,39,39,39,39,39,39,39,39,39,39,39,39,39,39,39,39,39,39,39,39,39,39,39,39,39,39,39,39,39,39,39,39,39,39,39,39,39,39,39,39,39,39,39,39,39,39,39,39,39,39,39,39,39,39,39,39,39,39,39,39,39,39,39,39,39,39,39,39,39,39,39,39,39,39,39,
   39,39,39,39,39,39,39,39,39,39,39,39,39,39,39,39,39,39,39,39,39,39,39,39,39,39,39,39,39,39,39,39,39,39,39,39,39,39,39,39,39,39,39,39,39,39,39,39,39,39,39,39,39,39,39,39,39,39,39,39,39,39,39,39,39,39,39,39,39,39,39,39,39,39,39,39,39,39,39,39,39,39,39,39,39,39,39,39,39,39,39,39,39,39,39,39,39,39,39,39,39,39,39,39,39,
   39,39,39,39,39,39,39,39,39,39,39,39,39,39,39,39,39,39,39,39,39,39,39,39,39,39,39,39,39,39,39,39,39,39,39,39,39,39,39,39,39,39,39,39,39,39,39,39,39,39,39,39,39,39,39,39,39,39,39,39,39,39,39,39,39,39,39,39,39,39,39,39,39,39,39,39,39,39,39,39,39,39,39,39,39,39,39,39,39,39,39,39,39,39,39,39,39,39,39,39,39,39,39,39,39,
   39,39,39,39,39,39,39,39,39,39,39,39,39,39,39,39,39,39,39,39,39,39,39,39,39,39,39,39,39,39,39,39,39,39,39,39,39,39,39,39,39,39,39,39,39,39,39,39,39,39,39,39,39,39,39,39,39,39,39,39,39,39,39,39,39,39,39,39,39,39,39,39,39,39,39,39,39,39,39,39,39,39,39,39,39,39,39,39,39,39,39,39,39,39,39,39,39,39,39,39,39,39,39,39,39,
   39,39,39,39,39,39,39,39,39,39,39,39,39,39,39,39,39,39,39,39,39,39,39,39,39,39,39,39,39,39,39,39,39,39,39,39,39,39,39,39,39,39,39,39,39,39,39,39,39,39,39,39,39,39,39,39,39,39,39,39,39,39,39,39,39,39,39,39,39,39,39,39,39,39,39,39,39,39,39,39,39,39,39,39,39,39,39,39,39,39,39,39,39,39,39,39,39,39,39,39,39,39,39,39,39,
   39,39,39,39,39,39,39,39,39,39,39,39,39,39,39,39,39,39,39,39,39,39,39,39,39,39,39,39,39,39,39,39,39,39,39,39,39,39,39,39,39,39,39,39,39,39,39,39,39,39,39,39,39,39,39,39,39,39,39,39,39,39,39,39,39,39,39,39,39,39,39,39,39,39,39,39,39,39,39,39,39,39,39,39,39,39,39,39,39,39,39,39,39,39,39,39,39,39,39,39,39,39,39,39,39,
   39,39,39,39,39,39,39,39,39,39,39,39,39,39,39,39,39,39,39,39,39,39,39,39,39,39,39,39,39,39,39,39,39,39,39,39,39,39,39,39,39,39,39,39,39,39,39,39,39,39,39,39,39,39,39,39,39,39,39,39,39,39,39,39,39,39,39,39,39,39,39,39,39,39,39,39,39,39,39,39,39,39,39,39,39,39,39,39,39,39,39,39,39,39,39,39,39,39,39,39,39,39,39,39,39,
   39,39,39,39,39,39,39,39,39,39,39,39,39,39,39,39,39,39,39,39,39,39,39,39,39,39,39,39,39,39,39,39,39,39,39,39,39,39,39,39,39,39,39,39,39,39,39,39,39,39,39,39,39,39,39,39,39,39,39,39,39,39,39,39,39,39,39,39,39,39,39,39,39,39,39,39,39,39,39,39,39,39,39,39,39,39,39,39,39,39,39,39,39,39,39,39,39,39,39,39,39,39,39,39,39
  ]
  },
  {
   "id": 2,
   "name": "deco",
   "type": "tilelayer",
   "x": 0,
   "y": 0,
   "width": 105,
   "height": 24,
   "opacity": 1,
   "visible": true,
   "data": [
   0,0,0,0,0,0,0,0,0,0,0,0,0,0,0,0,0,0,0,0,0,0,0,0,0,0,0,0,0,0,0,0,0,0,0,0,0,0,0,0,0,0,0,0,0,0,0,0,0,0,0,0,0,0,0,0,0,0,0,0,0,0,0,0,0,0,0,0,0,0,0,0,0,0,0,0,0,0,0,0,0,0,0,0,0,0,0,0,0,0,0,0,0,0,0,0,0,0,0,0,0,0,0,0,0,
   0,0,0,0,0,0,0,0,0,0,0,0,0,0,0,0,0,0,0,0,0,0,0,0,0,0,0,0,0,0,0,0,0,0,0,0,0,0,0,0,0,0,0,0,0,0,0,0,0,0,0,0,0,0,0,0,0,0,0,0,0,0,0,0,0,0,0,0,0,0,0,0,0,0,0,0,0,0,0,0,0,0,0,0,0,0,0,0,0,0,0,0,0,0,0,0,0,0,0,0,0,0,0,0,0,
   0,0,0,0,0,0,0,0,0,0,0,0,0,0,0,0,0,0,0,0,0,0,0,0,0,0,0,0,0,0,0,0,0,0,0,0,0,0,0,0,0,0,0,0,0,0,0,0,0,0,0,0,0,0,0,0,0,0,0,0,0,0,0,0,0,0,0,0,0,0,0,0,0,0,0,0,0,0,0,0,0,0,0,0,0,0,0,0,0,0,0,0,0,0,0,0,0,0,0,0,0,0,0,0,0,
   0,0,0,0,0,0,0,0,0,0,0,0,0,0,0,0,0,0,0,0,0,0,0,0,0,0,0,0,0,0,0,0,0,0,0,0,0,0,0,0,0,0,0,0,0,0,0,0,0,0,0,0,0,0,0,0,0,0,0,0,0,0,0,0,0,0,0,0,0,0,0,0,0,0,0,0,0,0,0,0,0,0,0,0,0,0,0,0,0,0,0,0,0,0,0,0,0,0,0,0,0,0,0,0,0,
   0,0,0,0,0,0,0,0,0,0,0,0,0,0,0,0,0,0,0,0,0,0,0,0,0,0,0,0,0,0,0,0,0,0,0,0,0,0,0,0,0,0,0,0,0,0,0,0,0,0,0,0,0,0,0,0,0,0,41,0,0,0,0,0,0,0,0,0,0,0,0,0,0,0,0,0,0,0,0,0,0,0,0,0,0,0,0,0,0,0,0,0,0,0,0,0,0,0,0,0,0,0,0,0,0,
   0,0,0,0,0,0,0,0,0,0,0,0,0,0,0,0,0,0,0,0,0,0,0,0,0,0,0,0,0,0,0,0,0,0,0,0,0,0,0,0,0,0,0,0,0,0,0,0,0,0,0,0,0,0,0,0,0,0,0,0,0,0,0,0,0,0,0,0,0,0,0,0,0,0,0,0,0,0,0,0,0,0,0,0,0,0,0,0,0,0,0,0,0,0,0,0,0,0,0,0,0,0,0,0,0,
   0,0,0,0,0,0,0,0,0,0,0,0,0,0,0,0,0,0,0,0,0,0,0,0,0,0,0,0,0,0,0,41,0,0,0,0,0,0,0,0,43,43,43,43,0,0,43,43,43,43,0,0,43,43,0,0,0,0,0,0,0,0,0,0,0,0,0,0,0,0,0,0,0,0,0,0,0,0,0,0,0,0,0,0,0,0,0,0,0,0,0,0,0,0,43,43,0,0,43,43,0,0,0,0,0,
   0,0,0,0,0,0,0,0,0,0,0,0,0,0,0,0,0,0,0,0,0,0,0,0,0,0,0,0,0,0,0,0,0,0,0,0,0,0,0,0,0,0,0,0,0,0,0,0,0,0,0,0,0,0,0,0,0,0,0,0,0,0,0,0,0,0,0,0,0,0,0,0,0,0,0,0,0,0,0,0,0,0,0,0,0,0,0,0,0,0,0,0,0,0,0,0,0,0,0,0,0,0,0,0,0,
   0,0,0,0,41,0,0,0,0,0,0,0,0,48,0,0,0,0,0,0,0,0,0,0,0,0,0,0,0,0,0,0,0,0,0,0,0,0,0,0,43,43,43,43,0,0,43,43,43,43,0,0,43,43,0,0,0,0,0,0,0,0,0,0,0,0,0,0,0,0,0,0,0,0,0,0,0,0,41,0,0,0,0,0,0,0,0,0,0,0,0,0,0,48,0,0,0,0,0,0,48,0,0,0,0,
   0,0,0,0,0,0,0,0,0,0,0,0,0,0,0,0,0,0,0,0,0,0,0,0,0,0,0,0,0,0,0,0,0,0,0,0,0,0,0,0,0,0,0,0,0,0,0,0,0,0,0,0,0,0,0,0,0,0,0,0,0,0,0,0,0,0,0,0,0,0,0,0,0,0,0,0,0,0,0,0,0,0,0,0,0,0,0,0,0,0,0,0,0,0,0,0,0,0,0,0,0,0,0,0,0,
   0,0,0,0,0,0,0,0,0,0,0,0,0,0,0,42,0,0,0,0,0,0,0,0,0,41,0,0,0,0,0,0,0,0,0,0,0,0,0,0,0,0,0,0,0,0,0,0,0,0,0,0,0,0,0,0,0,0,0,0,0,0,0,0,0,0,0,0,0,0,0,0,0,0,0,0,0,0,0,0,0,0,0,0,0,0,0,0,0,0,0,0,0,0,43,0,0,0,0,43,0,0,0,0,0,
   0,0,0,0,0,0,0,0,0,0,0,0,0,0,0,0,0,0,0,0,0,0,0,0,0,0,0,0,0,0,0,0,0,0,0,0,0,0,0,0,0,0,0,0,0,0,0,0,0,0,0,0,0,0,0,0,0,0,0,0,0,0,0,0,0,0,0,0,0,0,0,0,0,0,0,0,0,0,48,0,0,0,0,0,0,0,0,0,0,0,0,0,0,0,0,0,0,0,0,0,0,0,0,0,0,
   0,0,0,0,0,0,0,0,0,0,0,0,0,0,0,0,0,0,0,0,0,0,0,0,0,48,0,0,0,0,0,0,0,0,0,0,0,0,0,0,43,43,43,43,0,0,43,43,43,43,0,0,43,43,0,0,0,0,0,0,0,0,0,0,0,0,0,0,0,0,0,0,0,0,0,0,0,0,0,0,0,0,0,0,0,0,0,0,0,0,0,0,0,0,0,0,0,0,0,0,0,0,0,0,0,
   0,0,0,0,0,0,0,0,0,0,0,0,43,0,0,0,0,0,0,0,0,0,0,0,0,0,0,0,0,0,0,42,0,0,0,0,0,0,0,0,0,0,0,0,0,0,0,0,0,0,0,0,0,0,0,0,0,0,0,0,0,0,0,0,0,0,0,0,0,0,0,41,0,0,0,0,0,0,0,0,0,0,0,0,0,0,0,0,0,0,0,0,0,0,0,0,0,0,0,0,0,0,0,0,0,
   0,0,0,0,0,0,0,0,0,0,0,0,0,0,0,0,0,0,0,0,0,0,0,0,0,0,0,0,0,0,0,0,0,0,0,0,0,0,0,0,0,0,0,0,0,0,42,0,0,0,0,0,48,0,0,0,0,0,0,0,0,48,0,0,0,0,0,0,0,42,0,0,0,0,0,0,0,0,0,0,0,0,0,0,0,0,0,0,0,0,0,0,0,0,0,0,0,0,0,0,0,0,0,0,0,
   0,0,0,42,0,0,0,41,0,0,0,0,0,0,0,0,48,0,0,0,0,0,0,0,0,0,0,0,0,43,0,0,0,0,0,0,0,0,0,0,0,0,0,0,0,0,0,0,0,0,0,0,0,0,0,0,0,0,0,0,0,0,0,0,0,0,0,0,0,0,0,0,0,0,0,0,0,0,0,0,0,0,0,0,0,0,0,0,0,0,0,0,43,43,0,0,0,0,0,0,43,43,0,0,0,
   0,0,0,0,0,0,0,0,0,0,0,0,0,0,0,0,0,0,0,0,0,0,0,0,0,0,0,0,0,0,0,0,0,0,0,0,0,0,0,0,0,0,0,0,0,0,0,0,0,0,0,0,0,0,0,0,0,0,0,0,0,0,0,0,0,0,0,0,0,0,0,0,0,0,0,0,0,0,0,0,0,0,0,0,0,0,0,0,0,0,0,0,0,0,0,0,0,0,0,0,0,0,0,0,0,
   0,0,0,0,0,0,0,0,0,0,0,0,0,0,0,0,0,0,0,0,0,0,0,0,0,0,0,0,0,0,0,0,0,0,0,0,0,0,0,0,0,0,0,0,0,0,0,0,0,0,0,0,0,0,0,0,0,0,0,0,0,0,0,0,0,0,0,0,0,0,0,0,0,0,0,0,0,0,0,0,0,0,0,0,0,0,0,0,0,0,0,0,0,0,0,0,0,0,0,0,0,0,0,0,0,
   0,0,0,0,0,0,0,0,0,0,0,0,0,0,0,0,0,0,0,0,0,0,0,0,0,0,0,0,0,0,0,0,0,0,0,0,0,0,0,0,0,0,0,0,0,0,0,0,0,0,0,0,0,0,0,0,0,0,0,0,0,0,0,0,0,0,0,0,0,0,0,0,0,0,0,0,0,0,0,0,0,0,0,0,0,0,0,0,0,0,0,0,0,0,0,0,0,0,0,0,0,0,0,0,0,
   0,0,0,0,0,0,0,0,0,0,0,0,0,0,0,0,0,0,0,0,0,0,0,0,0,0,0,0,0,0,0,0,0,0,0,0,0,0,0,0,0,0,0,0,0,0,0,0,0,0,0,0,0,0,0,0,0,0,0,0,0,0,0,0,0,0,0,0,0,0,0,0,0,0,0,0,0,0,0,0,0,0,0,0,0,0,0,0,0,0,0,0,0,0,0,0,0,0,0,0,0,0,0,0,0,
   0,0,0,0,0,0,0,0,0,0,0,0,0,0,0,0,0,0,0,0,0,0,0,0,0,0,0,0,0,0,0,0,0,0,0,0,0,0,0,0,0,0,0,0,0,0,0,0,0,0,0,0,0,0,0,0,0,0,0,0,0,0,0,0,0,0,0,0,0,0,0,0,0,0,0,0,0,0,0,0,0,0,0,0,0,0,0,0,0,0,0,0,0,0,0,0,0,0,0,0,0,0,0,0,0,
   0,0,0,0,0,0,0,0,0,0,0,0,0,0,0,0,0,0,0,0,0,0,0,0,0,0,0,0,0,0,0,0,0,0,0,0,0,0,0,0,0,0,0,0,0,0,0,0,0,0,0,0,0,0,0,0,0,0,0,0,0,0,0,0,0,0,0,0,0,0,0,0,0,0,0,0,0,0,0,0,0,0,0,0,0,0,0,0,0,0,0,0,0,0,0,0,0,0,0,0,0,0,0,0,0,
   0,0,0,0,0,0,0,0,0,0,0,0,0,0,0,0,0,0,0,0,0,0,0,0,0,0,0,0,0,0,0,0,0,0,0,0,0,0,0,0,0,0,0,0,0,0,0,0,0,0,0,0,0,0,0,0,0,0,0,0,0,0,0,0,0,0,0,0,0,0,0,0,0,0,0,0,0,0,0,0,0,0,0,0,0,0,0,0,0,0,0,0,0,0,0,0,0,0,0,0,0,0,0,0,0,
   0,0,0,0,0,0,0,0,0,0,0,0,0,0,0,0,0,0,0,0,0,0,0,0,0,0,0,0,0,0,0,0,0,0,0,0,0,0,0,0,0,0,0,0,0,0,0,0,0,0,0,0,0,0,0,0,0,0,0,0,0,0,0,0,0,0,0,0,0,0,0,0,0,0,0,0,0,0,0,0,0,0,0,0,0,0,0,0,0,0,0,0,0,0,0,0,0,0,0,0,0,0,0,0,0
  ]
  },
  {
   "id": 3,
   "name": "collision",
   "type": "tilelayer",
   "x": 0,
   "y": 0,
   "width": 105,
   "height": 24,
   "opacity": 1,
   "visible": false,
   "data": [
   39,39,39,39,39,39,39,39,39,39,39,39,39,39,39,39,39,39,39,39,39,39,39,39,39,39,39,39,39,39,39,39,39,39,39,39,39,39,39,39,39,39,39,39,39,39,39,39,39,39,39,39,39,39,39,39,39,39,39,39,39,39,39,39,39,39,39,39,39,39,39,39,39,39,39,39,39,39,39,39,39,39,39,39,39,39,39,39,39,39,39,39,39,39,39,39,39,39,39,39,39,39,39,39,39,
   39,39,39,39,39,39,39,39,39,39,39,39,39,39,39,39,39,39,39,39,39,39,39,39,39,39,39,39,39,39,39,39,39,39,39,39,39,39,39,39,39,39,39,39,39,39,39,39,39,39,39,39,39,39,39,39,39,39,39,39,39,39,39,39,39,39,39,39,39,39,39,39,39,39,39,39,39,39,39,39,39,39,39,39,39,39,39,39,39,39,39,39,39,39,39,39,39,39,39,39,39,39,39,39,39,
   39,39,39,39,39,39,39,39,39,39,39,39,39,38,39,39,39,39,39,39,39,39,39,39,39,39,39,39,39,39,39,39,39,39,39,39,39,39,39,39,39,39,39,39,39,39,39,39,39,39,39,39,39,39,39,39,39,39,38,38,38,38,38,38,39,39,39,39,39,39,39,39,39,39,39,39,39,39,39,39,39,39,39,39,39,39,39,39,39,39,39,39,39,39,39,39,39,39,39,39,39,39,39,39,39,
   39,39,39,39,39,39,39,39,39,39,39,39,39,0,39,39,39,39,39,39,39,39,39,39,39,39,39,39,39,39,39,39,39,39,39,39,39,39,39,39,39,39,39,39,39,39,39,39,39,39,39,39,39,39,39,39,39,39,0,0,0,0,0,0,38,38,39,39,39,39,39,39,39,39,39,39,39,39,39,39,39,39,39,39,39,39,39,39,39,39,39,39,39,39,39,39,39,39,39,39,39,39,39,39,39,
   39,39,39,39,39,39,39,39,39,39,39,39,39,0,39,39,39,39,39,39,39,39,39,39,39,39,39,39,39,39,39,39,39,39,39,39,39,39,39,38,40,38,38,38,38,40,38,38,38,38,40,38,38,38,38,39,39,39,41,0,0,0,0,0,0,0,39,39,39,39,39,39,39,39,39,39,39,39,39,39,39,39,39,39,39,39,39,39,39,39,39,39,39,39,39,39,39,39,39,39,39,39,39,39,39,
   39,39,39,39,39,39,39,39,39,39,39,39,39,0,39,39,39,39,39,39,40,38,38,38,38,38,40,38,38,38,38,38,39,39,39,39,39,39,39,0,0,0,0,0,0,0,0,0,0,0,0,0,0,0,0,39,39,39,39,39,39,39,39,39,39,0,39,39,39,39,39,39,39,39,39,39,40,38,45,45,45,45,45,45,38,40,39,39,39,39,39,39,39,40,38,38,38,38,38,38,40,39,39,39,39,
   39,39,39,40,38,38,38,40,38,38,39,38,38,0,38,40,38,39,39,39,0,0,0,0,0,0,0,0,0,0,0,41,39,39,39,39,39,39,39,0,43,43,43,43,0,0,43,43,43,43,0,0,43,43,0,39,39,39,39,38,40,38,38,38,38,0,38,38,38,38,40,38,39,39,39,39,0,0,0,0,0,0,0,0,0,0,39,39,39,39,39,39,38,0,43,43,0,0,43,43,0,38,39,39,39,
   39,39,39,0,0,0,0,0,0,0,39,0,0,0,0,0,0,39,39,39,0,39,39,39,39,39,39,39,39,39,39,39,39,39,39,39,39,39,39,0,0,0,0,0,0,0,0,0,0,0,0,0,0,0,0,39,39,39,39,0,0,0,0,0,0,0,0,0,0,0,0,0,39,39,39,39,0,0,0,0,0,0,0,0,0,0,39,39,39,39,39,39,0,0,0,0,0,0,0,0,0,0,39,39,39,
   39,39,39,0,41,0,0,0,0,0,39,0,0,48,0,0,0,39,39,39,0,39,39,38,40,38,38,38,38,38,40,38,39,39,39,39,39,39,39,0,43,43,43,43,0,0,43,43,43,43,0,0,43,43,0,39,39,39,39,0,0,0,44,44,44,44,44,44,44,0,0,0,39,39,39,39,0,0,41,0,0,0,0,0,0,0,39,39,39,39,39,39,0,48,0,0,0,0,0,0,48,0,39,39,39,
   39,39,39,0,0,0,0,0,0,0,39,0,0,0,0,0,0,39,39,39,0,39,39,0,0,0,0,0,0,0,0,0,39,39,39,39,38,39,39,0,0,0,0,0,0,0,0,0,0,0,0,0,0,0,0,39,39,39,39,0,0,44,44,44,44,44,44,44,44,44,0,0,38,38,38,38,0,0,0,0,0,0,0,0,0,0,39,39,39,39,39,39,0,0,0,0,0,0,0,0,0,0,39,39,39,
   38,38,38,0,0,0,0,0,0,0,38,0,0,0,0,42,0,39,39,39,0,38,38,0,0,41,0,0,0,0,0,0,38,38,38,38,0,38,38,0,0,0,0,0,0,0,0,0,0,0,0,0,0,0,0,39,39,39,39,0,0,44,44,44,44,44,44,44,44,44,0,0,0,0,0,0,0,0,0,0,0,0,0,0,0,0,39,39,39,39,39,38,0,0,43,0,0,0,0,43,0,0,39,39,39,
   0,0,0,0,0,0,0,0,0,0,0,0,0,0,0,0,0,39,39,39,0,0,0,0,0,0,0,0,0,0,0,0,0,0,0,0,0,0,0,0,0,0,0,0,0,0,0,0,0,0,0,0,0,0,0,39,39,39,39,0,0,44,44,44,44,44,44,44,44,44,0,0,39,39,39,39,0,0,48,0,0,0,0,0,0,0,38,38,38,38,38,0,0,0,0,0,0,0,0,0,0,0,38,38,39,
   39,39,39,0,0,0,0,0,0,0,39,0,0,0,0,0,0,39,39,40,0,0,0,0,0,48,0,0,0,0,0,0,39,39,39,39,39,39,39,0,43,43,43,43,0,0,43,43,43,43,0,0,43,43,0,38,38,38,38,0,0,0,44,44,44,44,44,44,44,0,0,0,39,39,39,39,0,0,0,0,0,0,0,0,0,0,0,0,0,0,0,0,0,0,0,0,0,0,0,0,0,0,0,0,39,
   39,39,39,0,0,0,0,0,0,0,39,0,43,0,0,0,0,38,38,0,0,0,0,0,39,39,39,39,0,0,0,42,39,39,39,39,39,39,39,0,0,0,0,0,0,0,0,0,0,0,0,0,0,0,0,0,0,0,0,0,0,0,0,0,0,0,0,0,0,0,0,41,39,39,39,39,0,0,0,0,0,0,0,0,0,0,39,39,39,39,39,0,0,0,0,0,0,0,0,0,0,0,39,39,39,
   39,39,39,0,0,0,0,0,0,0,39,0,0,0,0,0,0,0,0,0,0,0,0,0,39,39,39,39,0,0,0,0,39,39,39,39,39,39,39,0,0,0,0,0,0,0,42,0,0,0,0,0,48,0,0,39,39,39,39,0,0,48,0,0,0,0,0,0,0,42,0,0,39,39,39,39,39,39,39,39,39,39,39,39,39,39,39,39,39,39,39,39,0,0,0,0,0,0,0,0,0,0,39,39,39,
   39,39,39,42,0,0,0,41,0,0,39,0,0,0,0,0,48,39,39,0,0,0,0,0,39,39,39,39,0,43,0,0,39,39,39,39,39,39,39,0,0,0,0,0,0,0,0,0,0,0,0,0,0,0,0,39,39,39,39,39,39,39,39,39,39,39,39,39,39,39,39,39,39,39,39,39,39,39,39,39,39,39,39,39,39,39,39,39,39,39,39,39,43,43,0,0,0,0,0,0,43,43,39,39,39,
   39,39,39,39,39,39,39,39,39,39,39,39,39,39,39,39,39,39,39,39,39,39,39,39,39,39,39,39,39,39,39,39,39,39,39,39,39,39,39,39,39,39,39,39,39,39,39,39,39,39,39,39,39,39,39,39,39,39,39,39,39,39,39,39,39,39,39,39,39,39,39,39,39,39,39,39,39,39,39,39,39,39,39,39,39,39,39,39,39,39,39,39,39,39,39,39,39,39,39,39,39,39,39,39,39,
   39,39,39,39,39,39,39,39,39,39,39,39,39,39,39,39,39,39,39,39,39,39,39,39,39,39,39,39,39,39,39,39,39,39,39,39,39,39,39,39,39,39,39,39,39,39,39,39,39,39,39,39,39,39,39,39,39,39,39,39,39,39,39,39,39,39,39,39,39,39,39,39,39,39,39,39,39,39,39,39,39,39,39,39,39,39,39,39,39,39,39,39,39,39,39,39,39,39,39,39,39,39,39,39,39,
   39,39,39,39,39,39,39,39,39,39,39,39,39,39,39,39,39,39,39,39,39,39,39,39,39,39,39,39,39,39,39,39,39,39,39,39,39,39,39,39,39,39,39,39,39,39,39,39,39,39,39,39,39,39,39,39,39,39,39,39,39,39,39,39,39,39,39,39,39,39,39,39,39,39,39,39,39,39,39,39,39,39,39,39,39,39,39,39,39,39,39,39,39,39,39,39,39,39,39,39,39,39,39,39,39,
   39,39,39,39,39,39,39,39,39,39,39,39,39,39,39,39,39,39,39,39,39,39,39,39,39,39,39,39,39,39,39,39,39,39,39,39,39,39,39,39,39,39,39,39,39,39,39,39,39,39,39,39,39,39,39,39,39,39,39,39,39,39,39,39,39,39,39,39,39,39,39,39,39,39,39,39,39,39,39,39,39,39,39,39,39,39,39,39,39,39,39,39,39,39,39,39,39,39,39,39,39,39,39,39,39,
   39,39,39,39,39,39,39,39,39,39,39,39,39,39,39,39,39,39,39,39,39,39,39,39,39,39,39,39,39,39,39,39,39,39,39,39,39,39,39,39,39,39,39,39,39,39,39,39,39,39,39,39,39,39,39,39,39,39,39,39,39,39,39,39,39,39,39,39,39,39,39,39,39,39,39,39,39,39,39,39,39,39,39,39,39,39,39,39,39,39,39,39,39,39,39,39,39,39,39,39,39,39,39,39,39,
   39,39,39,39,39,39,39,39,39,39,39,39,39,39,39,39,39,39,39,39,39,39,39,39,39,39,39,39,39,39,39,39,39,39,39,39,39,39,39,39,39,39,39,39,39,39,39,39,39,39,39,39,39,39,39,39,39,39,39,39,39,39,39,39,39,39,39,39,39,39,39,39,39,39,39,39,39,39,39,39,39,39,39,39,39,39,39,39,39,39,39,39,39,39,39,39,39,39,39,39,39,39,39,39,39,
   39,39,39,39,39,39,39,39,39,39,39,39,39,39,39,39,39,39,39,39,39,39,39,39,39,39,39,39,39,39,39,39,39,39,39,39,39,39,39,39,39,39,39,39,39,39,39,39,39,39,39,39,39,39,39,39,39,39,39,39,39,39,39,39,39,39,39,39,39,39,39,39,39,39,39,39,39,39,39,39,39,39,39,39,39,39,39,39,39,39,39,39,39,39,39,39,39,39,39,39,39,39,39,39,39,
   39,39,39,39,39,39,39,39,39,39,39,39,39,39,39,39,39,39,39,39,39,39,39,39,39,39,39,39,39,39,39,39,39,39,39,39,39,39,39,39,39,39,39,39,39,39,39,39,39,39,39,39,39,39,39,39,39,39,39,39,39,39,39,39,39,39,39,39,39,39,39,39,39,39,39,39,39,39,39,39,39,39,39,39,39,39,39,39,39,39,39,39,39,39,39,39,39,39,39,39,39,39,39,39,39
  ]
  },
  {
   "id": 4,
   "name": "objects",
   "type": "objectgroup",
   "draworder": "topdown",
   "x": 0,
   "y": 0,
   "opacity": 1,
   "visible": true,
   "objects": [
    {
     "id": 1,
     "name": "m_P0303",
     "type": "monster",
     "x": 208,
     "y": 48,
     "width": 16,
     "height": 16,
     "rotation": 0,
     "visible": true,
     "properties": [
      {
       "name": "problem",
       "type": "string",
       "value": "P0303"
      }
     ]
    },
    {
     "id": 2,
     "name": "m_P0309",
     "type": "monster",
     "x": 928,
     "y": 48,
     "width": 16,
     "height": 16,
     "rotation": 0,
     "visible": true,
     "properties": [
      {
       "name": "problem",
       "type": "string",
       "value": "P0309"
      }
     ]
    },
    {
     "id": 3,
     "name": "chest_hidden_pool",
     "type": "chest",
     "x": 960,
     "y": 48,
     "width": 16,
     "height": 16,
     "rotation": 0,
     "visible": true,
     "properties": [
      {
       "name": "gold",
       "type": "int",
       "value": 70
      },
      {
       "name": "dialogue",
       "type": "string",
       "value": "chest_hidden_pool"
      }
     ]
    },
    {
     "id": 4,
     "name": "chest_storeroom",
     "type": "chest",
     "x": 864,
     "y": 80,
     "width": 16,
     "height": 16,
     "rotation": 0,
     "visible": true,
     "properties": [
      {
       "name": "gold",
       "type": "int",
       "value": 50
      },
      {
       "name": "dialogue",
       "type": "string",
       "value": "chest_storeroom"
      }
     ]
    },
    {
     "id": 5,
     "name": "m_P0305",
     "type": "monster",
     "x": 480,
     "y": 96,
     "width": 16,
     "height": 16,
     "rotation": 0,
     "visible": true,
     "properties": [
      {
       "name": "problem",
       "type": "string",
       "value": "P0305"
      }
     ]
    },
    {
     "id": 6,
     "name": "npc_goblin_clerk",
     "type": "npc",
     "x": 736,
     "y": 112,
     "width": 16,
     "height": 16,
     "rotation": 0,
     "visible": true,
     "properties": [
      {
       "name": "dialogue",
       "type": "string",
       "value": "npc_goblin_clerk"
      },
      {
       "name": "sprite",
       "type": "string",
       "value": "npc_goblin"
      }
     ]
    },
    {
     "id": 7,
     "name": "sign_mural",
     "type": "sign",
     "x": 1280,
     "y": 112,
     "width": 16,
     "height": 16,
     "rotation": 0,
     "visible": true,
     "properties": [
      {
       "name": "dialogue",
       "type": "string",
       "value": "sign_mural"
      }
     ]
    },
    {
     "id": 8,
     "name": "rune_L3-5",
     "type": "rune",
     "x": 1344,
     "y": 128,
     "width": 16,
     "height": 16,
     "rotation": 0,
     "visible": true,
     "properties": [
      {
       "name": "lesson",
       "type": "string",
       "value": "L3-5"
      }
     ]
    },
    {
     "id": 9,
     "name": "rune_L3-1",
     "type": "rune",
     "x": 96,
     "y": 144,
     "width": 16,
     "height": 16,
     "rotation": 0,
     "visible": true,
     "properties": [
      {
       "name": "lesson",
       "type": "string",
       "value": "L3-1"
      }
     ]
    },
    {
     "id": 10,
     "name": "rune_L3-2",
     "type": "rune",
     "x": 464,
     "y": 160,
     "width": 16,
     "height": 16,
     "rotation": 0,
     "visible": true,
     "properties": [
      {
       "name": "lesson",
       "type": "string",
       "value": "L3-2"
      }
     ]
    },
    {
     "id": 11,
     "name": "rune_L3-3",
     "type": "rune",
     "x": 576,
     "y": 160,
     "width": 16,
     "height": 16,
     "rotation": 0,
     "visible": true,
     "properties": [
      {
       "name": "lesson",
       "type": "string",
       "value": "L3-3"
      }
     ]
    },
    {
     "id": 12,
     "name": "rune_L3-4",
     "type": "rune",
     "x": 960,
     "y": 160,
     "width": 16,
     "height": 16,
     "rotation": 0,
     "visible": true,
     "properties": [
      {
       "name": "lesson",
       "type": "string",
       "value": "L3-4"
      }
     ]
    },
    {
     "id": 13,
     "name": "m_P0308",
     "type": "monster",
     "x": 1168,
     "y": 160,
     "width": 16,
     "height": 16,
     "rotation": 0,
     "visible": true,
     "properties": [
      {
       "name": "problem",
       "type": "string",
       "value": "P0308"
      }
     ]
    },
    {
     "id": 14,
     "name": "warp_west",
     "type": "warp",
     "x": 0,
     "y": 176,
     "width": 16,
     "height": 16,
     "rotation": 0,
     "visible": true,
     "properties": [
      {
       "name": "target",
       "type": "string",
       "value": "r02"
      },
      {
       "name": "targetSpawn",
       "type": "string",
       "value": "warp_east"
      }
     ]
    },
    {
     "id": 15,
     "name": "spawn_west",
     "type": "spawn",
     "x": 16,
     "y": 176,
     "width": 16,
     "height": 16,
     "rotation": 0,
     "visible": true,
     "properties": []
    },
    {
     "id": 16,
     "name": "t_cave_intro",
     "type": "trigger",
     "x": 32,
     "y": 176,
     "width": 16,
     "height": 16,
     "rotation": 0,
     "visible": true,
     "properties": [
      {
       "name": "dialogue",
       "type": "string",
       "value": "cave_intro"
      },
      {
       "name": "once",
       "type": "bool",
       "value": true
      }
     ]
    },
    {
     "id": 17,
     "name": "m_P0301",
     "type": "monster",
     "x": 160,
     "y": 176,
     "width": 16,
     "height": 16,
     "rotation": 0,
     "visible": true,
     "properties": [
      {
       "name": "problem",
       "type": "string",
       "value": "P0301"
      }
     ]
    },
    {
     "id": 18,
     "name": "m_P0304",
     "type": "monster",
     "x": 560,
     "y": 176,
     "width": 16,
     "height": 16,
     "rotation": 0,
     "visible": true,
     "properties": [
      {
       "name": "problem",
       "type": "string",
       "value": "P0304"
      }
     ]
    },
    {
     "id": 19,
     "name": "m_P0306",
     "type": "monster",
     "x": 608,
     "y": 176,
     "width": 16,
     "height": 16,
     "rotation": 0,
     "visible": true,
     "properties": [
      {
       "name": "problem",
       "type": "string",
       "value": "P0306"
      }
     ]
    },
    {
     "id": 20,
     "name": "sign_tunnels",
     "type": "sign",
     "x": 352,
     "y": 192,
     "width": 16,
     "height": 16,
     "rotation": 0,
     "visible": true,
     "properties": [
      {
       "name": "dialogue",
       "type": "string",
       "value": "sign_tunnels"
      }
     ]
    },
    {
     "id": 21,
     "name": "m_P0310",
     "type": "monster",
     "x": 1392,
     "y": 192,
     "width": 16,
     "height": 16,
     "rotation": 0,
     "visible": true,
     "properties": [
      {
       "name": "problem",
       "type": "string",
       "value": "P0310"
      }
     ]
    },
    {
     "id": 22,
     "name": "t_boss_intro",
     "type": "trigger",
     "x": 1408,
     "y": 192,
     "width": 16,
     "height": 16,
     "rotation": 0,
     "visible": true,
     "properties": [
      {
       "name": "dialogue",
       "type": "string",
       "value": "boss_intro"
      },
      {
       "name": "once",
       "type": "bool",
       "value": true
      }
     ]
    },
    {
     "id": 23,
     "name": "m_P0311",
     "type": "monster",
     "x": 1440,
     "y": 192,
     "width": 16,
     "height": 16,
     "rotation": 0,
     "visible": true,
     "properties": [
      {
       "name": "problem",
       "type": "string",
       "value": "P0311"
      }
     ]
    },
    {
     "id": 24,
     "name": "warp_east",
     "type": "warp",
     "x": 1648,
     "y": 192,
     "width": 16,
     "height": 16,
     "rotation": 0,
     "visible": true,
     "properties": [
      {
       "name": "requires",
       "type": "string",
       "value": "problem:P0311"
      },
      {
       "name": "lockedDialogue",
       "type": "string",
       "value": "east_gate_locked"
      },
      {
       "name": "openDialogue",
       "type": "string",
       "value": "to_be_continued"
      }
     ]
    },
    {
     "id": 25,
     "name": "campfire_entrance",
     "type": "campfire",
     "x": 80,
     "y": 208,
     "width": 16,
     "height": 16,
     "rotation": 0,
     "visible": true,
     "properties": []
    },
    {
     "id": 26,
     "name": "m_P0307",
     "type": "monster",
     "x": 880,
     "y": 208,
     "width": 16,
     "height": 16,
     "rotation": 0,
     "visible": true,
     "properties": [
      {
       "name": "problem",
       "type": "string",
       "value": "P0307"
      }
     ]
    },
    {
     "id": 27,
     "name": "m_P0302",
     "type": "monster",
     "x": 272,
     "y": 224,
     "width": 16,
     "height": 16,
     "rotation": 0,
     "visible": true,
     "properties": [
      {
       "name": "problem",
       "type": "string",
       "value": "P0302"
      }
     ]
    },
    {
     "id": 28,
     "name": "board_shadow_r03",
     "type": "board",
     "x": 640,
     "y": 224,
     "width": 16,
     "height": 16,
     "rotation": 0,
     "visible": true,
     "properties": []
    },
    {
     "id": 29,
     "name": "campfire_storeroom",
     "type": "campfire",
     "x": 656,
     "y": 240,
     "width": 16,
     "height": 16,
     "rotation": 0,
     "visible": true,
     "properties": []
    }
   ]
  }
 ]
}
