{
 "type": "map",
 "version": "1.10",
 "tiledversion": "1.11.2",
 "orientation": "orthogonal",
 "renderorder": "right-down",
 "infinite": false,
 "width": 56,
 "height": 42,
 "tilewidth": 16,
 "tileheight": 16,
 "compressionlevel": -1,
 "nextlayerid": 5,
 "nextobjectid": 30,
 "properties": [
  {
   "name": "region",
   "type": "string",
   "value": "r01"
  }
 ],
 "tilesets": [
  {
   "firstgid": 1,
   "name": "overworld",
   "image": "../../../assets/tiles/overworld.png",
   "imagewidth": 128,
   "imageheight": 48,
   "tilewidth": 16,
   "tileheight": 16,
   "tilecount": 24,
   "columns": 8,
   "margin": 0,
   "spacing": 0,
   "tiles": [
    {
     "id": 0,
     "type": "grass",
     "properties": [
      {
       "name": "blocking",
       "type": "bool",
       "value": false
      }
     ]
    },
    {
     "id": 1,
     "type": "grass_flower",
     "properties": [
      {
       "name": "blocking",
       "type": "bool",
       "value": false
      }
     ]
    },
    {
     "id": 2,
     "type": "path",
     "properties": [
      {
       "name": "blocking",
       "type": "bool",
       "value": false
      }
     ]
    },
    {
     "id": 3,
     "type": "plaza_stone",
     "properties": [
      {
       "name": "blocking",
       "type": "bool",
       "value": false
      }
     ]
    },
    {
     "id": 4,
     "type": "water",
     "properties": [
      {
       "name": "blocking",
       "type": "bool",
       "value": true
      }
     ]
    },
    {
     "id": 5,
     "type": "well",
     "properties": [
      {
       "name": "blocking",
       "type": "bool",
       "value": true
      }
     ]
    },
    {
     "id": 6,
     "type": "tree",
     "properties": [
      {
       "name": "blocking",
       "type": "bool",
       "value": true
      }
     ]
    },
    {
     "id": 7,
     "type": "bush",
     "properties": [
      {
       "name": "blocking",
       "type": "bool",
       "value": true
      }
     ]
    },
    {
     "id": 8,
     "type": "house_wall",
     "properties": [
      {
       "name": "blocking",
       "type": "bool",
       "value": true
      }
     ]
    },
    {
     "id": 9,
     "type": "house_roof",
     "properties": [
      {
       "name": "blocking",
       "type": "bool",
       "value": true
      }
     ]
    },
    {
     "id": 10,
     "type": "house_door",
     "properties": [
      {
       "name": "blocking",
       "type": "bool",
       "value": false
      }
     ]
    },
    {
     "id": 11,
     "type": "house_window",
     "properties": [
      {
       "name": "blocking",
       "type": "bool",
       "value": true
      }
     ]
    },
    {
     "id": 12,
     "type": "fence",
     "properties": [
      {
       "name": "blocking",
       "type": "bool",
       "value": true
      }
     ]
    },
    {
     "id": 13,
     "type": "wall_stone",
     "properties": [
      {
       "name": "blocking",
       "type": "bool",
       "value": true
      }
     ]
    },
    {
     "id": 14,
     "type": "floor_wood",
     "properties": [
      {
       "name": "blocking",
       "type": "bool",
       "value": false
      }
     ]
    },
    {
     "id": 15,
     "type": "floor_stone",
     "properties": [
      {
       "name": "blocking",
       "type": "bool",
       "value": false
      }
     ]
    },
    {
     "id": 16,
     "type": "stairs",
     "properties": [
      {
       "name": "blocking",
       "type": "bool",
       "value": false
      }
     ]
    },
    {
     "id": 17,
     "type": "clocktower_wall",
     "properties": [
      {
       "name": "blocking",
       "type": "bool",
       "value": true
      }
     ]
    },
    {
     "id": 18,
     "type": "clocktower_door",
     "properties": [
      {
       "name": "blocking",
       "type": "bool",
       "value": false
      }
     ]
    },
    {
     "id": 19,
     "type": "lamp_post",
     "properties": [
      {
       "name": "blocking",
       "type": "bool",
       "value": true
      }
     ]
    },
    {
     "id": 20,
     "type": "crate",
     "properties": [
      {
       "name": "blocking",
       "type": "bool",
       "value": true
      }
     ]
    },
    {
     "id": 21,
     "type": "market_stall",
     "properties": [
      {
       "name": "blocking",
       "type": "bool",
       "value": true
      }
     ]
    },
    {
     "id": 22,
     "type": "flower_bed",
     "properties": [
      {
       "name": "blocking",
       "type": "bool",
       "value": true
      }
     ]
    },
    {
     "id": 23,
     "type": "dark_floor",
     "properties": [
      {
       "name": "blocking",
       "type": "bool",
       "value": false
      }
     ]
    }
   ]
  }
 ],
 "layers": [
  {
   "id": 1,
   "name": "ground",
   "type": "tilelayer",
   "x": 0,
   "y": 0,
   "width": 56,
   "height": 42,
   "opacity": 1,
   "visible": true,
   "data": [
   1,1,1,1,1,1,1,1,1,1,1,1,1,1,1,1,1,1,1,1,1,1,1,1,1,1,1,1,1,1,1,1,1,1,1,1,1,1,1,1,1,1,1,1,1,1,1,1,1,1,1,1,1,1,1,1,
   1,1,10,10,10,10,10,1,1,1,1,1,1,1,10,10,10,10,10,10,1,1,1,10,10,10,10,10,10,1,10,10,10,10,10,10,10,10,1,14,14,14,14,14,14,14,24,24,24,24,24,14,14,14,14,1,
   1,1,10,10,10,10,10,2,4,4,4,4,4,2,10,10,10,10,10,10,2,1,1,10,10,10,10,10,10,1,10,10,10,10,10,10,10,10,1,14,14,14,14,14,14,14,24,24,24,24,24,14,14,14,14,1,
   1,1,9,12,11,12,9,4,4,4,4,4,4,4,9,12,12,11,12,9,1,1,1,9,12,11,12,12,9,1,9,12,12,11,12,12,12,9,1,14,14,14,14,14,14,14,24,24,24,24,24,14,14,14,14,1,
   1,1,4,4,4,4,4,4,4,4,4,4,4,4,4,4,4,4,4,4,4,1,1,3,3,3,3,3,3,3,3,3,3,3,3,3,3,3,3,14,14,14,14,14,14,14,14,14,24,14,14,14,14,14,14,1,
   1,1,4,4,4,4,4,4,4,4,4,4,4,4,4,4,4,4,4,4,4,4,3,3,3,3,3,3,3,3,3,3,3,3,3,3,3,3,3,14,16,16,16,16,16,16,16,16,16,16,14,16,16,16,14,1,
   1,1,4,4,4,4,4,4,4,4,4,4,4,4,4,4,4,4,4,4,4,1,1,3,3,3,3,3,3,3,3,3,3,3,3,3,3,3,3,3,16,16,16,16,16,16,16,16,16,16,16,16,16,16,14,1,
   1,1,4,4,4,4,4,4,4,4,4,4,4,4,4,4,4,4,4,4,4,1,1,3,3,3,3,3,3,3,3,3,3,3,3,3,3,3,3,14,16,16,16,16,16,16,16,16,16,16,14,16,16,16,14,1,
   1,1,4,4,4,4,4,4,4,4,4,4,4,4,4,4,4,4,4,4,4,1,1,10,10,10,10,10,10,1,10,10,10,10,10,3,3,1,1,14,16,16,16,16,16,16,16,16,16,16,14,16,16,16,14,1,
   1,1,4,4,4,4,4,4,4,4,4,4,4,4,4,4,4,4,4,4,4,1,1,10,10,10,10,10,10,1,10,10,10,10,10,3,3,1,1,14,14,14,14,14,14,14,14,14,14,14,14,14,16,16,14,1,
   1,1,4,4,4,4,4,4,4,4,4,4,4,4,4,4,4,4,4,4,4,1,1,9,12,12,12,12,9,1,9,12,12,12,9,3,3,1,1,14,10,10,10,10,10,10,10,10,10,10,10,14,16,16,14,1,
   1,4,4,4,4,4,4,4,4,4,4,4,4,4,4,4,4,4,4,4,4,1,1,1,1,1,1,1,1,1,1,1,1,1,1,3,2,1,1,14,10,10,10,10,10,10,10,10,10,10,10,14,16,16,14,1,
   1,1,4,4,4,4,4,4,4,4,4,4,4,4,4,4,4,4,4,4,4,1,1,1,1,1,1,1,1,1,1,1,1,1,1,1,1,1,1,14,9,12,12,9,9,12,12,9,9,12,9,14,16,16,14,1,
   1,1,4,4,4,4,4,4,4,4,4,4,4,4,4,4,4,4,4,4,4,1,1,1,1,1,1,1,1,1,1,1,1,1,1,1,1,1,1,14,10,10,10,10,10,10,10,10,10,10,10,14,16,16,14,1,
   1,1,4,4,4,4,4,4,4,4,4,4,4,4,4,4,4,4,4,4,4,1,1,1,1,1,10,10,10,10,1,1,10,10,10,10,1,1,1,14,10,10,10,10,10,10,10,10,10,10,10,14,16,16,14,1,
   1,1,4,4,4,4,4,4,4,4,4,4,4,4,4,4,4,4,4,4,4,1,1,1,1,1,9,12,12,9,1,1,9,12,12,9,1,1,1,14,9,12,12,9,12,12,9,12,12,9,9,14,16,16,14,1,
   1,1,4,4,4,4,4,4,4,4,4,4,4,4,4,4,4,4,4,4,4,1,1,1,1,1,1,1,1,1,1,1,1,1,1,1,1,1,1,14,1,1,1,1,1,1,1,1,1,1,1,14,16,16,14,1,
   1,1,4,4,4,4,4,4,4,4,3,4,4,4,4,4,4,4,4,4,4,1,1,1,1,1,1,1,1,1,1,1,1,1,1,1,1,1,1,14,14,14,14,14,14,14,14,14,14,14,14,14,16,16,14,1,
   1,1,2,2,4,4,4,4,4,4,3,4,4,4,4,4,4,4,4,2,2,1,1,1,1,1,1,1,1,1,1,1,1,1,1,1,1,1,1,14,14,16,16,16,16,16,16,16,16,16,16,16,16,16,14,1,
   1,1,1,1,1,1,1,1,1,1,3,1,1,1,1,1,1,4,4,1,1,1,1,1,1,1,1,1,1,1,1,1,1,1,1,1,1,1,1,14,14,16,16,16,16,16,16,16,16,16,16,16,16,16,14,1,
   1,1,1,2,1,1,1,1,1,2,3,1,1,2,1,1,1,1,1,1,1,1,1,1,1,1,1,1,1,1,1,1,1,1,1,1,1,1,1,14,14,14,16,14,14,14,14,14,14,14,14,14,14,14,14,1,
   1,1,10,10,10,10,10,1,1,1,3,1,10,10,10,10,10,1,1,1,10,10,10,10,10,1,10,10,10,1,1,4,4,4,4,4,4,4,4,4,4,4,3,4,4,4,4,4,4,4,4,4,4,4,14,1,
   1,1,10,10,10,10,10,1,2,1,3,1,10,10,10,10,10,2,1,1,10,10,10,10,10,1,10,10,10,1,1,4,4,4,4,4,4,4,4,4,4,4,3,4,4,4,4,4,4,4,4,4,4,4,14,1,
   1,1,9,12,11,12,9,1,1,1,3,1,9,12,11,12,9,1,1,1,9,12,12,12,9,1,9,12,9,1,1,4,4,4,4,4,4,4,4,4,4,4,4,4,4,4,4,4,4,4,4,4,4,4,14,1,
   1,1,2,1,3,3,1,1,1,1,3,1,1,1,3,1,1,1,1,1,1,1,1,1,1,1,1,1,1,1,1,3,3,3,10,10,10,10,10,10,18,18,18,18,18,18,18,18,10,10,10,10,10,10,14,1,
   1,1,1,3,3,3,3,3,3,3,3,3,3,3,3,1,2,1,1,1,1,1,1,1,1,1,1,1,1,1,1,3,3,3,10,10,10,10,10,10,18,18,18,18,18,18,18,18,10,10,10,10,10,10,14,1,
   1,1,1,3,1,1,1,1,1,1,3,1,1,1,1,1,1,1,1,1,1,1,1,1,1,1,1,1,1,1,1,3,3,3,9,12,12,11,12,9,18,18,18,18,18,18,18,18,9,12,11,12,12,9,14,1,
   1,1,1,3,1,1,1,4,4,4,4,4,4,4,1,2,1,1,1,1,1,1,1,1,1,1,1,1,1,1,1,3,3,3,3,1,1,1,1,1,18,18,18,18,18,18,18,18,1,1,1,1,1,1,14,1,
   1,1,1,3,1,1,1,4,4,4,5,4,4,4,1,1,2,1,1,1,1,1,1,1,1,1,1,1,1,1,1,3,3,3,1,1,1,1,1,1,18,18,18,18,18,18,18,18,1,1,1,1,1,1,14,1,
   1,1,1,3,1,1,1,4,4,4,4,4,4,4,1,1,1,1,1,1,1,1,1,1,1,1,1,1,1,1,1,3,3,3,1,1,1,1,1,1,18,18,18,18,18,18,18,18,1,1,1,1,1,1,14,1,
   1,1,1,3,3,3,3,4,4,4,4,4,4,4,1,1,1,1,1,1,1,1,1,1,1,1,1,1,1,1,1,3,3,3,1,1,1,1,1,1,18,18,18,18,18,18,18,18,1,1,1,1,1,1,14,1,
   1,1,1,1,1,1,1,1,4,4,4,4,4,1,2,1,1,1,1,1,1,1,1,1,1,1,1,1,1,1,1,3,3,3,10,10,10,10,10,10,18,18,18,18,18,18,18,18,10,10,10,10,10,10,14,1,
   1,1,1,2,1,1,1,1,1,1,1,1,1,1,1,1,1,1,1,1,1,1,1,1,1,1,1,1,1,1,1,3,3,3,10,10,10,10,10,10,18,18,18,18,18,18,18,18,10,10,10,10,10,10,14,1,
   1,1,1,1,1,1,1,1,1,1,1,1,1,1,1,1,1,1,1,1,1,1,1,1,1,1,1,1,1,1,1,3,3,3,9,12,12,12,12,9,18,18,18,18,18,18,18,18,9,12,12,12,12,9,14,1,
   1,1,1,1,1,1,1,1,5,5,5,5,1,1,1,1,1,1,1,1,1,1,1,1,1,1,1,1,1,1,1,3,3,3,14,14,14,14,14,14,18,18,18,18,18,18,18,18,14,14,14,14,14,14,14,1,
   1,1,1,2,1,1,1,5,5,5,5,5,5,1,1,1,2,1,1,1,1,1,1,1,1,1,1,1,1,1,1,3,3,3,14,14,14,14,14,14,18,18,18,19,18,18,18,18,14,14,14,14,14,14,14,1,
   1,1,1,1,1,1,1,5,5,5,5,5,5,1,1,1,1,1,1,1,1,1,1,1,1,1,1,1,1,1,1,3,3,3,17,17,17,17,17,17,17,17,17,17,17,17,17,17,17,17,17,17,17,17,16,1,
   1,1,1,2,1,1,1,1,5,5,5,5,1,1,1,1,2,1,1,1,1,1,1,1,1,1,1,1,1,1,1,1,1,1,14,14,14,14,14,14,14,14,14,14,14,14,14,14,14,14,14,14,14,14,14,1,
   1,1,1,1,1,1,2,1,1,1,1,1,1,1,2,1,1,1,1,1,1,1,1,1,1,1,1,1,1,1,1,1,1,1,1,1,1,1,1,1,1,1,1,1,1,1,1,1,1,1,1,1,1,1,1,1,
   1,1,1,1,1,1,1,1,1,1,1,1,1,1,1,1,1,1,1,1,1,1,1,1,1,1,1,1,1,1,1,1,1,1,1,1,1,1,1,1,1,1,1,1,1,1,1,1,1,1,1,1,1,1,1,1,
   1,1,1,1,1,1,1,1,1,1,1,1,1,1,1,1,1,1,1,1,1,1,1,1,1,1,1,1,1,1,1,1,1,1,1,1,1,1,1,1,1,1,1,1,1,1,1,1,1,1,1,1,1,1,1,1,
   1,1,1,1,1,1,1,1,1,1,1,1,1,1,1,1,1,1,1,1,1,1,1,1,1,1,1,1,1,1,1,1,1,1,1,1,1,1,1,1,1,1,1,1,1,1,1,1,1,1,1,1,1,1,1,1
  ]
  },
  {
   "id": 2,
   "name": "deco",
   "type": "tilelayer",
   "x": 0,
   "y": 0,
   "width": 56,
   "height": 42,
   "opacity": 1,
   "visible": true,
   "data": [
   7,7,7,7,7,7,7,7,7,7,7,7,7,7,7,7,7,7,7,7,7,7,7,7,7,7,7,7,7,7,7,7,7,7,7,7,7,7,7,7,7,7,7,7,7,7,7,7,7,7,7,7,7,7,7,7,
   7,0,0,0,0,0,0,0,7,7,0,7,7,0,0,0,0,0,0,0,0,7,7,0,0,0,0,0,0,7,0,0,0,0,0,0,0,0,7,0,0,0,0,0,0,0,0,0,0,0,0,0,0,0,0,7,
   7,0,0,0,0,0,0,0,20,0,0,0,20,0,0,0,0,0,0,0,0,0,7,0,0,0,0,0,0,7,0,0,0,0,0,0,0,0,7,0,0,0,0,0,0,0,0,0,0,0,0,0,0,0,0,7,
   7,0,0,0,0,0,0,23,0,0,0,0,0,23,0,0,0,0,0,0,23,0,7,0,0,0,0,0,0,7,0,0,0,0,0,0,0,0,7,0,0,0,0,0,0,0,0,0,0,0,0,0,0,0,0,7,
   7,0,0,0,0,0,0,0,0,0,0,0,0,0,0,0,0,0,0,0,0,0,7,20,0,0,22,0,22,23,21,22,22,0,20,21,22,22,21,0,0,0,0,0,0,0,0,0,8,0,0,0,0,0,0,7,
   7,20,0,0,0,23,0,0,0,0,0,0,0,0,0,0,23,0,0,0,0,0,0,0,0,0,0,0,0,0,0,0,0,0,0,0,0,0,0,0,0,0,0,0,0,0,0,0,0,0,0,0,0,0,0,7,
   7,0,0,0,23,23,0,0,0,0,20,0,0,0,0,23,23,0,0,0,20,0,7,0,0,0,0,0,0,0,0,21,0,0,0,0,0,0,0,0,0,0,0,0,0,0,0,0,0,0,0,0,0,0,0,7,
   7,0,0,0,0,0,0,0,0,0,0,0,0,0,0,0,0,0,0,0,0,0,7,20,22,0,22,23,23,20,21,21,22,22,20,0,0,21,20,0,0,0,0,0,0,0,0,0,0,0,0,0,0,0,0,7,
   7,0,0,0,20,0,0,0,23,23,0,0,0,23,23,0,0,0,20,0,0,0,7,0,0,0,0,0,0,7,0,0,0,0,0,0,0,7,7,0,0,0,0,0,0,0,0,0,0,0,0,0,0,0,0,7,
   7,0,0,0,0,0,0,0,0,0,0,0,0,0,0,0,0,0,0,0,0,0,7,0,0,0,0,0,0,7,0,0,0,0,0,0,0,7,7,0,0,0,0,0,0,0,0,0,0,0,0,0,0,0,0,7,
   7,13,23,23,13,13,23,23,13,13,23,0,23,13,13,23,23,13,13,23,23,13,7,0,0,0,0,0,0,7,0,0,0,0,0,0,0,7,7,0,0,0,0,0,0,0,0,0,0,0,0,0,0,0,0,7,
   7,0,0,0,0,0,0,0,0,0,0,0,0,0,0,0,0,0,0,0,0,0,7,7,7,7,7,7,7,7,7,7,7,7,7,0,0,7,7,0,0,0,0,0,0,0,0,0,0,0,0,0,0,0,0,7,
   7,0,0,0,0,0,0,0,0,0,20,0,0,0,0,0,0,0,0,0,0,0,7,7,7,7,7,7,7,7,7,7,7,7,7,7,7,7,7,0,0,0,0,0,0,0,0,0,0,0,0,0,0,0,0,7,
   7,0,0,0,0,0,0,0,0,0,0,0,0,0,0,0,0,0,0,0,0,0,7,7,7,7,7,7,7,7,7,7,7,7,7,7,7,7,7,0,0,0,0,0,0,0,0,0,0,0,0,0,0,0,0,7,
   7,0,23,23,0,0,0,0,0,0,0,0,0,0,0,0,0,0,0,23,23,0,7,7,7,7,0,0,0,0,7,7,0,0,0,0,7,7,7,0,0,0,0,0,0,0,0,0,0,0,0,0,0,0,0,7,
   7,0,0,0,0,0,0,0,0,0,0,0,0,0,0,0,0,0,0,0,0,0,7,7,7,7,0,0,0,0,7,7,0,0,0,0,7,7,7,0,0,0,0,0,0,0,0,0,0,0,0,0,0,0,0,7,
   7,22,22,0,21,0,0,0,0,0,0,0,0,0,0,21,0,22,22,0,0,0,7,7,7,7,23,23,23,23,7,7,23,23,23,23,7,7,7,0,8,8,7,8,8,7,8,8,7,8,8,0,0,0,0,7,
   7,0,0,0,20,0,0,0,0,0,0,0,0,0,0,20,0,0,0,0,0,0,7,7,7,7,7,7,7,7,7,7,7,7,7,7,7,7,7,0,0,0,0,0,0,0,0,0,0,0,0,0,0,0,0,7,
   7,0,0,0,0,0,0,0,0,0,0,0,0,0,0,0,0,0,0,0,0,0,7,7,7,7,7,7,7,7,7,7,7,7,7,7,7,7,7,0,0,0,0,0,0,0,0,0,0,0,0,0,0,0,0,7,
   7,13,13,13,13,13,13,13,13,13,0,13,13,13,13,13,13,13,13,7,7,7,7,7,7,7,7,7,7,7,7,7,7,7,7,7,7,7,7,0,0,0,0,0,0,0,0,0,0,0,0,0,0,0,0,7,
   7,7,0,0,0,0,0,0,0,0,0,0,0,0,0,0,0,0,7,7,7,7,7,7,7,7,7,7,7,7,7,7,7,7,7,7,7,7,7,0,0,0,0,0,0,0,0,0,0,0,0,0,0,0,0,7,
   7,0,0,0,0,0,0,0,0,0,0,0,0,0,0,0,0,0,0,7,0,0,0,0,0,7,0,0,0,7,7,23,0,0,0,0,20,0,0,0,0,0,0,0,0,0,0,0,20,0,0,0,0,23,0,7,
   7,0,0,0,0,0,0,0,0,0,0,0,0,0,0,0,0,0,0,7,0,0,0,0,0,7,0,0,0,7,7,0,0,0,0,0,0,0,0,0,0,0,0,0,0,0,0,0,0,0,0,0,0,0,0,7,
   7,0,0,0,0,0,0,0,20,0,0,0,0,0,0,0,0,20,0,7,0,0,0,0,0,7,0,0,0,7,7,0,0,0,0,0,0,0,0,0,0,0,0,0,0,0,0,0,0,0,0,0,0,0,0,7,
   7,0,0,23,0,23,0,0,0,0,0,0,0,0,0,0,0,0,0,7,23,23,23,23,23,7,23,23,23,7,7,0,0,0,0,0,0,0,0,0,0,0,0,0,0,0,0,0,0,0,0,0,0,0,0,7,
   7,0,0,0,0,0,0,0,0,0,0,0,0,0,0,0,0,0,0,7,7,7,7,8,7,7,7,7,8,7,7,0,0,0,0,0,0,0,0,0,0,0,0,0,0,0,0,0,0,0,0,0,0,0,0,7,
   7,0,7,0,0,0,0,0,0,0,0,0,0,0,0,0,0,0,7,7,7,7,7,7,7,7,7,7,7,7,7,0,0,0,0,0,0,0,0,0,0,0,0,0,0,0,0,0,0,0,0,0,0,0,0,7,
   7,0,7,0,0,0,0,0,0,0,0,0,0,0,0,0,0,0,7,7,7,7,7,8,7,7,7,7,8,7,7,0,0,0,23,23,20,23,23,7,0,0,0,0,0,0,0,0,7,23,23,20,23,23,0,7,
   7,0,7,0,0,0,0,0,0,0,0,0,0,0,0,0,0,0,7,7,7,7,7,7,7,7,7,7,7,7,7,0,0,0,7,7,7,7,7,7,0,0,0,0,0,0,0,0,7,7,7,7,7,7,0,7,
   7,0,7,0,0,0,0,20,0,0,6,0,0,20,0,0,0,0,7,7,7,7,8,7,7,7,7,8,7,7,7,0,0,0,7,8,7,7,8,7,0,0,0,0,0,0,0,0,7,8,7,7,8,7,0,7,
   7,0,7,0,0,0,0,0,0,0,0,0,0,0,0,0,0,0,7,7,7,7,7,7,7,7,7,7,7,7,7,0,0,0,7,7,7,7,7,7,0,0,0,0,0,0,0,0,7,7,7,7,7,7,0,7,
   7,0,7,0,0,0,0,23,0,0,0,0,0,23,0,0,0,0,7,7,7,7,7,7,8,7,7,7,7,7,7,20,0,0,0,0,0,0,0,0,0,0,0,0,0,0,0,0,0,0,0,0,0,0,0,7,
   7,0,7,0,0,0,0,0,0,0,0,0,0,0,0,0,0,0,7,7,7,7,7,7,7,7,7,7,7,7,7,0,0,0,0,0,0,0,0,0,0,0,0,0,0,0,0,0,0,0,0,0,0,0,0,7,
   7,0,7,7,23,23,23,0,0,7,7,7,0,0,23,23,23,7,7,7,7,7,8,7,7,7,7,8,7,7,7,0,0,0,0,0,0,0,0,0,0,0,0,0,0,0,0,0,0,0,0,0,0,0,0,7,
   7,0,7,0,0,0,0,0,0,0,0,0,0,0,0,0,0,7,7,7,7,7,7,7,7,7,7,7,7,7,7,0,0,20,0,0,0,0,0,0,0,0,0,0,0,0,0,0,0,0,0,0,0,0,0,7,
   7,0,7,0,0,0,0,0,0,0,0,0,0,0,0,0,0,7,7,7,7,7,7,7,8,7,7,7,7,7,7,0,0,0,0,0,0,0,0,0,0,0,0,0,0,0,0,0,0,0,0,0,0,0,0,7,
   7,0,7,0,0,0,0,0,0,0,0,0,0,0,0,0,0,7,7,7,7,7,7,7,7,7,7,7,7,7,7,0,0,0,0,0,0,0,0,0,0,0,0,0,0,0,0,0,0,0,0,0,0,0,0,7,
   7,0,7,0,0,0,0,0,0,0,0,0,0,0,0,0,0,7,7,7,7,7,8,7,7,7,7,8,7,7,7,7,7,7,0,0,0,0,0,0,0,0,0,0,0,0,0,0,0,0,0,0,0,0,0,7,
   7,0,7,7,0,0,0,0,0,0,0,0,0,0,0,0,0,7,7,7,7,7,7,7,7,7,7,7,7,7,7,7,7,7,7,7,7,7,7,7,7,7,7,7,7,7,7,7,7,7,7,7,7,7,7,7,
   7,0,7,7,7,23,23,23,23,23,7,7,23,23,23,23,23,7,7,7,7,7,7,7,7,7,7,7,7,7,7,7,7,7,7,7,7,7,7,7,7,7,7,7,7,7,7,7,7,7,7,7,7,7,7,7,
   7,7,7,7,7,7,7,7,7,7,7,7,7,7,7,7,7,7,7,7,7,7,7,7,7,7,7,7,7,7,7,7,7,7,7,7,7,7,7,7,7,7,7,7,7,7,7,7,7,7,7,7,7,7,7,7,
   7,7,7,7,7,7,7,7,7,7,7,7,7,7,7,7,7,7,7,7,7,7,7,7,7,7,7,7,7,7,7,7,7,7,7,7,7,7,7,7,7,7,7,7,7,7,7,7,7,7,7,7,7,7,7,7
  ]
  },
  {
   "id": 3,
   "name": "collision",
   "type": "tilelayer",
   "x": 0,
   "y": 0,
   "width": 56,
   "height": 42,
   "opacity": 1,
   "visible": false,
   "data": [
   7,7,7,7,7,7,7,7,7,7,7,7,7,7,7,7,7,7,7,7,7,7,7,7,7,7,7,7,7,7,7,7,7,7,7,7,7,7,7,7,7,7,7,7,7,7,7,7,7,7,7,7,7,7,7,7,
   7,0,10,10,10,10,10,0,7,7,0,7,7,0,10,10,10,10,10,10,0,7,7,10,10,10,10,10,10,7,10,10,10,10,10,10,10,10,7,14,14,14,14,14,14,14,0,0,0,0,0,14,14,14,14,7,
   7,0,10,10,10,10,10,0,20,0,0,0,20,0,10,10,10,10,10,10,0,0,7,10,10,10,10,10,10,7,10,10,10,10,10,10,10,10,7,14,14,14,14,14,14,14,0,0,0,0,0,14,14,14,14,7,
   7,0,9,12,0,12,9,23,0,0,0,0,0,23,9,12,12,0,12,9,23,0,7,9,12,0,12,12,9,7,9,12,12,0,12,12,12,9,7,14,14,14,14,14,14,14,0,0,0,0,0,14,14,14,14,7,
   7,0,0,0,0,0,0,0,0,0,0,0,0,0,0,0,0,0,0,0,0,0,7,20,0,0,22,0,22,23,21,22,22,0,20,21,22,22,21,14,14,14,14,14,14,14,14,14,0,14,14,14,14,14,14,7,
   7,20,0,0,0,23,0,0,0,0,0,0,0,0,0,0,23,0,0,0,0,0,0,0,0,0,0,0,0,0,0,0,0,0,0,0,0,0,0,14,0,0,0,0,0,0,0,0,0,0,14,0,0,0,14,7,
   7,0,0,0,23,23,0,0,0,0,20,0,0,0,0,23,23,0,0,0,20,0,7,0,0,0,0,0,0,0,0,21,0,0,0,0,0,0,0,0,0,0,0,0,0,0,0,0,0,0,0,0,0,0,14,7,
   7,0,0,0,0,0,0,0,0,0,0,0,0,0,0,0,0,0,0,0,0,0,7,20,22,0,22,23,23,20,21,21,22,22,20,0,0,21,20,14,0,0,0,0,0,0,0,0,0,0,14,0,0,0,14,7,
   7,0,0,0,20,0,0,0,23,23,0,0,0,23,23,0,0,0,20,0,0,0,7,10,10,10,10,10,10,7,10,10,10,10,10,0,0,7,7,14,0,0,0,0,0,0,0,0,0,0,14,0,0,0,14,7,
   7,0,0,0,0,0,0,0,0,0,0,0,0,0,0,0,0,0,0,0,0,0,7,10,10,10,10,10,10,7,10,10,10,10,10,0,0,7,7,14,14,14,14,14,14,14,14,14,14,14,14,14,0,0,14,7,
   7,13,23,23,13,13,23,23,13,13,23,0,23,13,13,23,23,13,13,23,23,13,7,9,12,12,12,12,9,7,9,12,12,12,9,0,0,7,7,14,10,10,10,10,10,10,10,10,10,10,10,14,0,0,14,7,
   7,0,0,0,0,0,0,0,0,0,0,0,0,0,0,0,0,0,0,0,0,0,7,7,7,7,7,7,7,7,7,7,7,7,7,0,0,7,7,14,10,10,10,10,10,10,10,10,10,10,10,14,0,0,14,7,
   7,0,0,0,0,0,0,0,0,0,20,0,0,0,0,0,0,0,0,0,0,0,7,7,7,7,7,7,7,7,7,7,7,7,7,7,7,7,7,14,9,12,12,9,9,12,12,9,9,12,9,14,0,0,14,7,
   7,0,0,0,0,0,0,0,0,0,0,0,0,0,0,0,0,0,0,0,0,0,7,7,7,7,7,7,7,7,7,7,7,7,7,7,7,7,7,14,10,10,10,10,10,10,10,10,10,10,10,14,0,0,14,7,
   7,0,23,23,0,0,0,0,0,0,0,0,0,0,0,0,0,0,0,23,23,0,7,7,7,7,10,10,10,10,7,7,10,10,10,10,7,7,7,14,10,10,10,10,10,10,10,10,10,10,10,14,0,0,14,7,
   7,0,0,0,0,0,0,0,0,0,0,0,0,0,0,0,0,0,0,0,0,0,7,7,7,7,9,12,12,9,7,7,9,12,12,9,7,7,7,14,9,12,12,9,12,12,9,12,12,9,9,14,0,0,14,7,
   7,22,22,0,21,0,0,0,0,0,0,0,0,0,0,21,0,22,22,0,0,0,7,7,7,7,23,23,23,23,7,7,23,23,23,23,7,7,7,14,8,8,7,8,8,7,8,8,7,8,8,14,0,0,14,7,
   7,0,0,0,20,0,0,0,0,0,0,0,0,0,0,20,0,0,0,0,0,0,7,7,7,7,7,7,7,7,7,7,7,7,7,7,7,7,7,14,14,14,14,14,14,14,14,14,14,14,14,14,0,0,14,7,
   7,0,0,0,0,0,0,0,0,0,0,0,0,0,0,0,0,0,0,0,0,0,7,7,7,7,7,7,7,7,7,7,7,7,7,7,7,7,7,14,14,0,0,0,0,0,0,0,0,0,0,0,0,0,14,7,
   7,13,13,13,13,13,13,13,13,13,0,13,13,13,13,13,13,13,13,7,7,7,7,7,7,7,7,7,7,7,7,7,7,7,7,7,7,7,7,14,14,0,0,0,0,0,0,0,0,0,0,0,0,0,14,7,
   7,7,0,0,0,0,0,0,0,0,0,0,0,0,0,0,0,0,7,7,7,7,7,7,7,7,7,7,7,7,7,7,7,7,7,7,7,7,7,14,14,14,0,14,14,14,14,14,14,14,14,14,14,14,14,7,
   7,0,10,10,10,10,10,0,0,0,0,0,10,10,10,10,10,0,0,7,10,10,10,10,10,7,10,10,10,7,7,23,0,0,0,0,20,0,0,0,0,0,0,0,0,0,0,0,20,0,0,0,0,23,14,7,
   7,0,10,10,10,10,10,0,0,0,0,0,10,10,10,10,10,0,0,7,10,10,10,10,10,7,10,10,10,7,7,0,0,0,0,0,0,0,0,0,0,0,0,0,0,0,0,0,0,0,0,0,0,0,14,7,
   7,0,9,12,0,12,9,0,20,0,0,0,9,12,0,12,9,20,0,7,9,12,12,12,9,7,9,12,9,7,7,0,0,0,0,0,0,0,0,0,0,0,0,0,0,0,0,0,0,0,0,0,0,0,14,7,
   7,0,0,23,0,23,0,0,0,0,0,0,0,0,0,0,0,0,0,7,23,23,23,23,23,7,23,23,23,7,7,0,0,0,10,10,10,10,10,10,18,18,18,18,18,18,18,18,10,10,10,10,10,10,14,7,
   7,0,0,0,0,0,0,0,0,0,0,0,0,0,0,0,0,0,0,7,7,7,7,8,7,7,7,7,8,7,7,0,0,0,10,10,10,10,10,10,18,18,18,18,18,18,18,18,10,10,10,10,10,10,14,7,
   7,0,7,0,0,0,0,0,0,0,0,0,0,0,0,0,0,0,7,7,7,7,7,7,7,7,7,7,7,7,7,0,0,0,9,12,12,0,12,9,18,18,18,18,18,18,18,18,9,12,0,12,12,9,14,7,
   7,0,7,0,0,0,0,0,0,0,0,0,0,0,0,0,0,0,7,7,7,7,7,8,7,7,7,7,8,7,7,0,0,0,23,23,20,23,23,7,18,18,18,18,18,18,18,18,7,23,23,20,23,23,14,7,
   7,0,7,0,0,0,0,0,0,0,5,0,0,0,0,0,0,0,7,7,7,7,7,7,7,7,7,7,7,7,7,0,0,0,7,7,7,7,7,7,18,18,18,18,18,18,18,18,7,7,7,7,7,7,14,7,
   7,0,7,0,0,0,0,20,0,0,6,0,0,20,0,0,0,0,7,7,7,7,8,7,7,7,7,8,7,7,7,0,0,0,7,8,7,7,8,7,18,18,18,18,18,18,18,18,7,8,7,7,8,7,14,7,
   7,0,7,0,0,0,0,0,0,0,0,0,0,0,0,0,0,0,7,7,7,7,7,7,7,7,7,7,7,7,7,0,0,0,7,7,7,7,7,7,18,18,18,18,18,18,18,18,7,7,7,7,7,7,14,7,
   7,0,7,0,0,0,0,23,0,0,0,0,0,23,0,0,0,0,7,7,7,7,7,7,8,7,7,7,7,7,7,20,0,0,10,10,10,10,10,10,18,18,18,18,18,18,18,18,10,10,10,10,10,10,14,7,
   7,0,7,0,0,0,0,0,0,0,0,0,0,0,0,0,0,0,7,7,7,7,7,7,7,7,7,7,7,7,7,0,0,0,10,10,10,10,10,10,18,18,18,18,18,18,18,18,10,10,10,10,10,10,14,7,
   7,0,7,7,23,23,23,0,0,7,7,7,0,0,23,23,23,7,7,7,7,7,8,7,7,7,7,8,7,7,7,0,0,0,9,12,12,12,12,9,18,18,18,18,18,18,18,18,9,12,12,12,12,9,14,7,
   7,0,7,0,0,0,0,0,5,5,5,5,0,0,0,0,0,7,7,7,7,7,7,7,7,7,7,7,7,7,7,0,0,20,14,14,14,14,14,14,18,18,18,18,18,18,18,18,14,14,14,14,14,14,14,7,
   7,0,7,0,0,0,0,5,5,5,5,5,5,0,0,0,0,7,7,7,7,7,7,7,8,7,7,7,7,7,7,0,0,0,14,14,14,14,14,14,18,18,18,0,18,18,18,18,14,14,14,14,14,14,14,7,
   7,0,7,0,0,0,0,5,5,5,5,5,5,0,0,0,0,7,7,7,7,7,7,7,7,7,7,7,7,7,7,0,0,0,0,0,0,0,0,0,0,0,0,0,0,0,0,0,0,0,0,0,0,0,0,7,
   7,0,7,0,0,0,0,0,5,5,5,5,0,0,0,0,0,7,7,7,7,7,8,7,7,7,7,8,7,7,7,7,7,7,14,14,14,14,14,14,14,14,14,14,14,14,14,14,14,14,14,14,14,14,14,7,
   7,0,7,7,0,0,0,0,0,0,0,0,0,0,0,0,0,7,7,7,7,7,7,7,7,7,7,7,7,7,7,7,7,7,7,7,7,7,7,7,7,7,7,7,7,7,7,7,7,7,7,7,7,7,7,7,
   7,0,7,7,7,23,23,23,23,23,7,7,23,23,23,23,23,7,7,7,7,7,7,7,7,7,7,7,7,7,7,7,7,7,7,7,7,7,7,7,7,7,7,7,7,7,7,7,7,7,7,7,7,7,7,7,
   7,7,7,7,7,7,7,7,7,7,7,7,7,7,7,7,7,7,7,7,7,7,7,7,7,7,7,7,7,7,7,7,7,7,7,7,7,7,7,7,7,7,7,7,7,7,7,7,7,7,7,7,7,7,7,7,
   7,7,7,7,7,7,7,7,7,7,7,7,7,7,7,7,7,7,7,7,7,7,7,7,7,7,7,7,7,7,7,7,7,7,7,7,7,7,7,7,7,7,7,7,7,7,7,7,7,7,7,7,7,7,7,7
  ]
  },
  {
   "id": 4,
   "name": "objects",
   "type": "objectgroup",
   "draworder": "topdown",
   "x": 0,
   "y": 0,
   "opacity": 1,
   "visible": true,
   "objects": [
    {
     "id": 1,
     "name": "chest_hidden",
     "type": "chest",
     "x": 736,
     "y": 16,
     "width": 16,
     "height": 16,
     "rotation": 0,
     "visible": true,
     "properties": [
      {
       "name": "gold",
       "type": "int",
       "value": 50
      },
      {
       "name": "dialogue",
       "type": "string",
       "value": "chest_hidden"
      }
     ]
    },
    {
     "id": 2,
     "name": "m_P0110",
     "type": "monster",
     "x": 800,
     "y": 32,
     "width": 16,
     "height": 16,
     "rotation": 0,
     "visible": true,
     "properties": [
      {
       "name": "problem",
       "type": "string",
       "value": "P0110"
      }
     ]
    },
    {
     "id": 3,
     "name": "rune_L1-3",
     "type": "rune",
     "x": 384,
     "y": 64,
     "width": 16,
     "height": 16,
     "rotation": 0,
     "visible": true,
     "properties": [
      {
       "name": "lesson",
       "type": "string",
       "value": "L1-3"
      }
     ]
    },
    {
     "id": 4,
     "name": "npc_shopkeeper",
     "type": "npc",
     "x": 432,
     "y": 64,
     "width": 16,
     "height": 16,
     "rotation": 0,
     "visible": true,
     "properties": [
      {
       "name": "dialogue",
       "type": "string",
       "value": "npc_shopkeeper"
      },
      {
       "name": "sprite",
       "type": "string",
       "value": "npc_villager"
      }
     ]
    },
    {
     "id": 5,
     "name": "m_P0106",
     "type": "monster",
     "x": 352,
     "y": 80,
     "width": 16,
     "height": 16,
     "rotation": 0,
     "visible": true,
     "properties": [
      {
       "name": "problem",
       "type": "string",
       "value": "P0106"
      }
     ]
    },
    {
     "id": 6,
     "name": "m_P0102",
     "type": "monster",
     "x": 496,
     "y": 80,
     "width": 16,
     "height": 16,
     "rotation": 0,
     "visible": true,
     "properties": [
      {
       "name": "problem",
       "type": "string",
       "value": "P0102"
      }
     ]
    },
    {
     "id": 7,
     "name": "rune_L1-4",
     "type": "rune",
     "x": 672,
     "y": 80,
     "width": 16,
     "height": 16,
     "rotation": 0,
     "visible": true,
     "properties": [
      {
       "name": "lesson",
       "type": "string",
       "value": "L1-4"
      }
     ]
    },
    {
     "id": 8,
     "name": "npc_echo_child",
     "type": "npc",
     "x": 704,
     "y": 80,
     "width": 16,
     "height": 16,
     "rotation": 0,
     "visible": true,
     "properties": [
      {
       "name": "dialogue",
       "type": "string",
       "value": "npc_echo_child"
      },
      {
       "name": "sprite",
       "type": "string",
       "value": "npc_child"
      }
     ]
    },
    {
     "id": 9,
     "name": "m_P0103",
     "type": "monster",
     "x": 624,
     "y": 96,
     "width": 16,
     "height": 16,
     "rotation": 0,
     "visible": true,
     "properties": [
      {
       "name": "problem",
       "type": "string",
       "value": "P0103"
      }
     ]
    },
    {
     "id": 10,
     "name": "m_P0104",
     "type": "monster",
     "x": 800,
     "y": 96,
     "width": 16,
     "height": 16,
     "rotation": 0,
     "visible": true,
     "properties": [
      {
       "name": "problem",
       "type": "string",
       "value": "P0104"
      }
     ]
    },
    {
     "id": 11,
     "name": "chest_shop",
     "type": "chest",
     "x": 400,
     "y": 112,
     "width": 16,
     "height": 16,
     "rotation": 0,
     "visible": true,
     "properties": [
      {
       "name": "gold",
       "type": "int",
       "value": 30
      },
      {
       "name": "dialogue",
       "type": "string",
       "value": "chest_shop"
      }
     ]
    },
    {
     "id": 12,
     "name": "sign_alley_riddle",
     "type": "sign",
     "x": 656,
     "y": 128,
     "width": 16,
     "height": 16,
     "rotation": 0,
     "visible": true,
     "properties": [
      {
       "name": "dialogue",
       "type": "string",
       "value": "sign_alley_riddle"
      }
     ]
    },
    {
     "id": 13,
     "name": "m_P0101",
     "type": "monster",
     "x": 176,
     "y": 160,
     "width": 16,
     "height": 16,
     "rotation": 0,
     "visible": true,
     "properties": [
      {
       "name": "problem",
       "type": "string",
       "value": "P0101"
      }
     ]
    },
    {
     "id": 14,
     "name": "m_P0109",
     "type": "monster",
     "x": 16,
     "y": 176,
     "width": 16,
     "height": 16,
     "rotation": 0,
     "visible": true,
     "properties": [
      {
       "name": "problem",
       "type": "string",
       "value": "P0109"
      }
     ]
    },
    {
     "id": 15,
     "name": "m_P0108",
     "type": "monster",
     "x": 560,
     "y": 176,
     "width": 16,
     "height": 16,
     "rotation": 0,
     "visible": true,
     "properties": [
      {
       "name": "problem",
       "type": "string",
       "value": "P0108"
      }
     ]
    },
    {
     "id": 16,
     "name": "npc_frozen_merchant",
     "type": "npc",
     "x": 64,
     "y": 192,
     "width": 16,
     "height": 16,
     "rotation": 0,
     "visible": true,
     "properties": [
      {
       "name": "dialogue",
       "type": "string",
       "value": "npc_frozen_merchant"
      },
      {
       "name": "sprite",
       "type": "string",
       "value": "npc_merchant"
      }
     ]
    },
    {
     "id": 17,
     "name": "campfire_plaza",
     "type": "campfire",
     "x": 256,
     "y": 192,
     "width": 16,
     "height": 16,
     "rotation": 0,
     "visible": true,
     "properties": []
    },
    {
     "id": 18,
     "name": "rune_L1-2",
     "type": "rune",
     "x": 112,
     "y": 224,
     "width": 16,
     "height": 16,
     "rotation": 0,
     "visible": true,
     "properties": [
      {
       "name": "lesson",
       "type": "string",
       "value": "L1-2"
      }
     ]
    },
    {
     "id": 19,
     "name": "sign_plaza",
     "type": "sign",
     "x": 240,
     "y": 224,
     "width": 16,
     "height": 16,
     "rotation": 0,
     "visible": true,
     "properties": [
      {
       "name": "dialogue",
       "type": "string",
       "value": "sign_plaza"
      }
     ]
    },
    {
     "id": 20,
     "name": "campfire_alley",
     "type": "campfire",
     "x": 704,
     "y": 288,
     "width": 16,
     "height": 16,
     "rotation": 0,
     "visible": true,
     "properties": []
    },
    {
     "id": 21,
     "name": "gate_well",
     "type": "door",
     "x": 160,
     "y": 304,
     "width": 16,
     "height": 16,
     "rotation": 0,
     "visible": true,
     "properties": [
      {
       "name": "requires",
       "type": "string",
       "value": "lesson:L1-1"
      },
      {
       "name": "lockedDialogue",
       "type": "string",
       "value": "gate_well_locked"
      }
     ]
    },
    {
     "id": 22,
     "name": "m_P0107",
     "type": "monster",
     "x": 672,
     "y": 320,
     "width": 16,
     "height": 16,
     "rotation": 0,
     "visible": true,
     "properties": [
      {
       "name": "problem",
       "type": "string",
       "value": "P0107"
      }
     ]
    },
    {
     "id": 23,
     "name": "spawn",
     "type": "spawn",
     "x": 64,
     "y": 384,
     "width": 16,
     "height": 16,
     "rotation": 0,
     "visible": true,
     "properties": []
    },
    {
     "id": 24,
     "name": "t_prologue",
     "type": "trigger",
     "x": 64,
     "y": 400,
     "width": 16,
     "height": 16,
     "rotation": 0,
     "visible": true,
     "properties": [
      {
       "name": "dialogue",
       "type": "string",
       "value": "prologue"
      },
      {
       "name": "once",
       "type": "bool",
       "value": true
      },
      {
       "name": "joinCompanion",
       "type": "bool",
       "value": true
      }
     ]
    },
    {
     "id": 25,
     "name": "sign_well",
     "type": "sign",
     "x": 128,
     "y": 416,
     "width": 16,
     "height": 16,
     "rotation": 0,
     "visible": true,
     "properties": [
      {
       "name": "dialogue",
       "type": "string",
       "value": "sign_well"
      }
     ]
    },
    {
     "id": 26,
     "name": "rune_L1-1",
     "type": "rune",
     "x": 224,
     "y": 416,
     "width": 16,
     "height": 16,
     "rotation": 0,
     "visible": true,
     "properties": [
      {
       "name": "lesson",
       "type": "string",
       "value": "L1-1"
      }
     ]
    },
    {
     "id": 27,
     "name": "t_boss_intro",
     "type": "trigger",
     "x": 736,
     "y": 576,
     "width": 16,
     "height": 16,
     "rotation": 0,
     "visible": true,
     "properties": [
      {
       "name": "dialogue",
       "type": "string",
       "value": "boss_intro"
      },
      {
       "name": "once",
       "type": "bool",
       "value": true
      }
     ]
    },
    {
     "id": 28,
     "name": "m_P0105",
     "type": "monster",
     "x": 768,
     "y": 576,
     "width": 16,
     "height": 16,
     "rotation": 0,
     "visible": true,
     "properties": [
      {
       "name": "problem",
       "type": "string",
       "value": "P0105"
      }
     ]
    },
    {
     "id": 29,
     "name": "warp_east",
     "type": "warp",
     "x": 864,
     "y": 576,
     "width": 16,
     "height": 16,
     "rotation": 0,
     "visible": true,
     "properties": [
      {
       "name": "lockedDialogue",
       "type": "string",
       "value": "east_gate_locked"
      },
      {
       "name": "requires",
       "type": "string",
       "value": "problem:P0105"
      },
      {
       "name": "openDialogue",
       "type": "string",
       "value": "to_be_continued"
      },
      {
       "name": "target",
       "type": "string",
       "value": "r02"
      },
      {
       "name": "targetSpawn",
       "type": "string",
       "value": "spawn_west"
      }
     ]
    }
   ]
  }
 ]
}
