{
 "type": "map",
 "version": "1.10",
 "tiledversion": "1.11.2",
 "orientation": "orthogonal",
 "renderorder": "right-down",
 "infinite": false,
 "width": 84,
 "height": 24,
 "tilewidth": 16,
 "tileheight": 16,
 "compressionlevel": -1,
 "nextlayerid": 5,
 "nextobjectid": 29,
 "properties": [
  {
   "name": "region",
   "type": "string",
   "value": "r02"
  }
 ],
 "tilesets": [
  {
   "firstgid": 1,
   "name": "overworld",
   "image": "../../../assets/tiles/overworld.png",
   "imagewidth": 128,
   "imageheight": 96,
   "tilewidth": 16,
   "tileheight": 16,
   "tilecount": 48,
   "columns": 8,
   "margin": 0,
   "spacing": 0,
   "tiles": [
    {
     "id": 0,
     "type": "grass",
     "properties": [
      {
       "name": "blocking",
       "type": "bool",
       "value": false
      }
     ]
    },
    {
     "id": 1,
     "type": "grass_flower",
     "properties": [
      {
       "name": "blocking",
       "type": "bool",
       "value": false
      }
     ]
    },
    {
     "id": 2,
     "type": "path",
     "properties": [
      {
       "name": "blocking",
       "type": "bool",
       "value": false
      }
     ]
    },
    {
     "id": 3,
     "type": "plaza_stone",
     "properties": [
      {
       "name": "blocking",
       "type": "bool",
       "value": false
      }
     ]
    },
    {
     "id": 4,
     "type": "water",
     "properties": [
      {
       "name": "blocking",
       "type": "bool",
       "value": true
      }
     ]
    },
    {
     "id": 5,
     "type": "well",
     "properties": [
      {
       "name": "blocking",
       "type": "bool",
       "value": true
      }
     ]
    },
    {
     "id": 6,
     "type": "tree",
     "properties": [
      {
       "name": "blocking",
       "type": "bool",
       "value": true
      }
     ]
    },
    {
     "id": 7,
     "type": "bush",
     "properties": [
      {
       "name": "blocking",
       "type": "bool",
       "value": true
      }
     ]
    },
    {
     "id": 8,
     "type": "house_wall",
     "properties": [
      {
       "name": "blocking",
       "type": "bool",
       "value": true
      }
     ]
    },
    {
     "id": 9,
     "type": "house_roof",
     "properties": [
      {
       "name": "blocking",
       "type": "bool",
       "value": true
      }
     ]
    },
    {
     "id": 10,
     "type": "house_door",
     "properties": [
      {
       "name": "blocking",
       "type": "bool",
       "value": false
      }
     ]
    },
    {
     "id": 11,
     "type": "house_window",
     "properties": [
      {
       "name": "blocking",
       "type": "bool",
       "value": true
      }
     ]
    },
    {
     "id": 12,
     "type": "fence",
     "properties": [
      {
       "name": "blocking",
       "type": "bool",
       "value": true
      }
     ]
    },
    {
     "id": 13,
     "type": "wall_stone",
     "properties": [
      {
       "name": "blocking",
       "type": "bool",
       "value": true
      }
     ]
    },
    {
     "id": 14,
     "type": "floor_wood",
     "properties": [
      {
       "name": "blocking",
       "type": "bool",
       "value": false
      }
     ]
    },
    {
     "id": 15,
     "type": "floor_stone",
     "properties": [
      {
       "name": "blocking",
       "type": "bool",
       "value": false
      }
     ]
    },
    {
     "id": 16,
     "type": "stairs",
     "properties": [
      {
       "name": "blocking",
       "type": "bool",
       "value": false
      }
     ]
    },
    {
     "id": 17,
     "type": "clocktower_wall",
     "properties": [
      {
       "name": "blocking",
       "type": "bool",
       "value": true
      }
     ]
    },
    {
     "id": 18,
     "type": "clocktower_door",
     "properties": [
      {
       "name": "blocking",
       "type": "bool",
       "value": false
      }
     ]
    },
    {
     "id": 19,
     "type": "lamp_post",
     "properties": [
      {
       "name": "blocking",
       "type": "bool",
       "value": true
      }
     ]
    },
    {
     "id": 20,
     "type": "crate",
     "properties": [
      {
       "name": "blocking",
       "type": "bool",
       "value": true
      }
     ]
    },
    {
     "id": 21,
     "type": "market_stall",
     "properties": [
      {
       "name": "blocking",
       "type": "bool",
       "value": true
      }
     ]
    },
    {
     "id": 22,
     "type": "flower_bed",
     "properties": [
      {
       "name": "blocking",
       "type": "bool",
       "value": true
      }
     ]
    },
    {
     "id": 23,
     "type": "dark_floor",
     "properties": [
      {
       "name": "blocking",
       "type": "bool",
       "value": false
      }
     ]
    },
    {
     "id": 24,
     "type": "forest_floor",
     "properties": [
      {
       "name": "blocking",
       "type": "bool",
       "value": false
      }
     ]
    },
    {
     "id": 25,
     "type": "fallen_leaves",
     "properties": [
      {
       "name": "blocking",
       "type": "bool",
       "value": false
      }
     ]
    },
    {
     "id": 26,
     "type": "tall_grass",
     "properties": [
      {
       "name": "blocking",
       "type": "bool",
       "value": false
      }
     ]
    },
    {
     "id": 27,
     "type": "stump",
     "properties": [
      {
       "name": "blocking",
       "type": "bool",
       "value": true
      }
     ]
    },
    {
     "id": 28,
     "type": "log",
     "properties": [
      {
       "name": "blocking",
       "type": "bool",
       "value": true
      }
     ]
    },
    {
     "id": 29,
     "type": "mushroom_patch",
     "properties": [
      {
       "name": "blocking",
       "type": "bool",
       "value": false
      }
     ]
    },
    {
     "id": 30,
     "type": "stream",
     "properties": [
      {
       "name": "blocking",
       "type": "bool",
       "value": true
      }
     ]
    },
    {
     "id": 31,
     "type": "stepping_stone",
     "properties": [
      {
       "name": "blocking",
       "type": "bool",
       "value": false
      }
     ]
    },
    {
     "id": 32,
     "type": "signpost_fork",
     "properties": [
      {
       "name": "blocking",
       "type": "bool",
       "value": true
      }
     ]
    },
    {
     "id": 33,
     "type": "pine_tree",
     "properties": [
      {
       "name": "blocking",
       "type": "bool",
       "value": true
      }
     ]
    },
    {
     "id": 34,
     "type": "moss_stone",
     "properties": [
      {
       "name": "blocking",
       "type": "bool",
       "value": true
      }
     ]
    },
    {
     "id": 35,
     "type": "root_floor",
     "properties": [
      {
       "name": "blocking",
       "type": "bool",
       "value": false
      }
     ]
    },
    {
     "id": 36,
     "type": "cave_floor",
     "properties": [
      {
       "name": "blocking",
       "type": "bool",
       "value": false
      }
     ]
    },
    {
     "id": 37,
     "type": "cave_wall",
     "properties": [
      {
       "name": "blocking",
       "type": "bool",
       "value": true
      }
     ]
    },
    {
     "id": 38,
     "type": "cave_wall_top",
     "properties": [
      {
       "name": "blocking",
       "type": "bool",
       "value": true
      }
     ]
    },
    {
     "id": 39,
     "type": "torch_frozen",
     "properties": [
      {
       "name": "blocking",
       "type": "bool",
       "value": true
      }
     ]
    },
    {
     "id": 40,
     "type": "crystal",
     "properties": [
      {
       "name": "blocking",
       "type": "bool",
       "value": true
      }
     ]
    },
    {
     "id": 41,
     "type": "rubble",
     "properties": [
      {
       "name": "blocking",
       "type": "bool",
       "value": true
      }
     ]
    },
    {
     "id": 42,
     "type": "treasure_pile",
     "properties": [
      {
       "name": "blocking",
       "type": "bool",
       "value": true
      }
     ]
    },
    {
     "id": 43,
     "type": "cave_pool",
     "properties": [
      {
       "name": "blocking",
       "type": "bool",
       "value": true
      }
     ]
    },
    {
     "id": 44,
     "type": "mural_wall",
     "properties": [
      {
       "name": "blocking",
       "type": "bool",
       "value": true
      }
     ]
    },
    {
     "id": 45,
     "type": "cave_crack",
     "properties": [
      {
       "name": "blocking",
       "type": "bool",
       "value": false
      }
     ]
    },
    {
     "id": 46,
     "type": "minecart_rail",
     "properties": [
      {
       "name": "blocking",
       "type": "bool",
       "value": false
      }
     ]
    },
    {
     "id": 47,
     "type": "bone_pile",
     "properties": [
      {
       "name": "blocking",
       "type": "bool",
       "value": true
      }
     ]
    }
   ]
  }
 ],
 "layers": [
  {
   "id": 1,
   "name": "ground",
   "type": "tilelayer",
   "x": 0,
   "y": 0,
   "width": 84,
   "height": 24,
   "opacity": 1,
   "visible": true,
   "data": [
   25,25,25,25,25,25,25,25,25,25,25,25,25,25,25,25,25,25,25,25,25,25,25,25,25,25,25,25,25,25,25,25,25,25,25,25,25,25,25,25,25,25,25,25,25,25,25,25,25,25,25,25,25,31,31,31,25,25,25,25,25,25,25,25,25,25,25,25,25,25,25,25,25,25,25,25,25,25,25,25,25,25,25,25,
   25,25,25,25,25,25,25,25,25,25,25,25,25,25,25,25,25,25,25,25,25,25,25,25,25,25,25,25,25,25,25,25,25,25,25,25,25,25,25,25,25,25,25,25,25,25,25,25,25,25,25,25,25,31,31,31,25,25,25,25,25,25,25,25,25,25,25,25,25,25,25,25,25,25,25,25,25,25,25,25,25,25,25,25,
   25,25,25,25,25,25,25,25,25,25,25,25,26,25,25,25,25,25,25,25,25,25,25,25,25,25,25,25,25,25,25,25,25,25,25,25,25,25,25,25,25,25,25,25,25,25,25,25,26,25,25,26,25,31,31,31,25,25,25,25,25,25,25,25,25,25,25,25,25,25,25,25,25,25,25,25,25,25,25,25,25,25,25,25,
   25,25,25,25,25,25,25,25,25,25,25,25,27,25,25,25,25,25,25,25,25,25,25,25,25,25,25,25,25,25,25,25,25,25,25,25,25,25,25,25,25,25,25,25,25,25,25,25,25,25,25,25,25,31,31,31,25,25,25,25,25,25,25,25,25,25,25,25,25,25,25,25,25,25,25,25,25,25,25,25,25,25,25,25,
   25,25,25,25,25,25,25,26,25,25,25,25,36,25,25,25,25,25,25,25,25,25,25,25,25,25,25,25,25,25,25,25,25,25,26,25,25,25,25,25,25,25,25,25,25,25,25,25,25,25,25,25,25,31,31,31,25,25,25,25,25,25,25,25,25,25,25,25,25,25,25,25,25,25,25,25,25,25,25,25,25,25,25,25,
   25,25,25,25,25,25,25,25,25,25,25,25,25,36,25,25,25,25,25,25,25,25,25,25,25,25,25,25,25,25,25,25,25,25,27,25,25,25,25,25,25,25,25,25,25,25,26,25,25,25,25,25,25,31,31,31,25,25,25,25,25,25,25,25,25,25,25,25,25,25,25,25,25,25,25,25,25,26,25,25,36,36,25,25,
   25,25,25,25,25,25,25,25,25,25,25,25,25,36,36,25,26,25,25,25,25,25,25,25,25,25,25,25,25,25,25,25,25,25,36,25,25,25,25,25,25,25,25,25,25,25,25,25,25,25,25,26,25,31,31,31,25,25,25,25,25,25,25,25,25,25,26,25,25,25,25,25,25,25,25,25,25,25,26,25,36,25,25,25,
   25,25,25,25,25,36,25,25,25,25,25,25,25,25,36,25,25,25,25,25,36,36,36,36,36,36,36,36,25,25,25,36,36,36,36,36,36,36,36,25,25,25,25,25,25,25,25,25,25,25,25,25,25,31,31,31,25,26,25,25,25,25,25,25,25,25,36,36,25,25,25,25,25,25,25,26,25,25,25,36,36,25,25,25,
   25,25,25,25,36,36,36,25,25,25,25,25,25,25,36,36,25,25,25,25,36,25,25,25,25,25,25,36,25,25,25,36,25,25,25,25,25,25,36,25,25,25,25,25,25,25,25,25,25,25,25,25,27,31,31,31,25,25,25,25,25,25,25,25,25,36,36,25,36,25,25,25,25,25,25,25,25,25,36,36,25,26,25,25,
   25,25,25,25,36,25,25,25,25,25,25,25,25,25,25,36,25,25,25,25,36,25,25,25,25,25,25,36,25,25,25,36,25,25,25,25,25,25,36,25,25,25,25,25,25,25,25,36,36,36,25,25,25,31,31,31,25,25,25,25,25,25,25,25,25,36,25,25,36,36,25,25,25,25,25,25,26,36,36,25,25,25,25,25,
   25,25,25,25,36,25,25,25,25,25,25,25,25,25,25,36,25,25,25,25,36,25,25,25,25,25,25,36,25,25,25,36,25,25,25,25,25,25,36,25,25,25,25,25,25,25,25,36,25,36,36,25,25,31,31,31,25,25,36,36,25,25,25,25,36,36,25,27,25,36,25,25,25,25,25,25,36,36,25,25,26,25,25,25,
   36,36,36,36,36,36,36,36,36,36,36,36,25,36,36,36,25,25,25,25,36,25,25,25,25,25,25,36,36,36,36,36,25,25,25,25,25,25,36,36,36,36,36,36,36,36,36,36,25,25,25,36,36,32,32,32,36,36,36,36,36,36,36,36,36,25,25,26,25,36,36,36,36,36,36,36,36,36,36,36,36,36,36,25,
   25,25,25,25,36,25,25,25,25,25,25,25,25,25,25,36,25,25,25,25,36,25,25,25,25,25,25,36,25,25,25,36,25,25,25,25,25,25,36,25,25,25,25,25,25,25,26,25,25,25,25,25,25,31,31,31,25,26,25,36,25,25,25,25,26,25,25,27,25,25,25,25,25,25,25,25,36,36,25,25,26,25,25,25,
   25,25,25,25,36,25,25,25,25,25,25,25,25,26,25,36,25,25,25,25,36,25,25,25,25,25,25,36,25,25,25,36,25,25,25,25,25,25,36,25,25,25,25,25,25,25,25,25,25,26,25,25,25,31,31,31,25,25,25,25,25,25,25,25,25,25,26,25,25,25,25,25,25,25,25,25,26,36,36,25,25,25,25,25,
   25,25,25,25,36,36,25,25,25,25,25,25,25,25,36,36,36,36,36,36,36,25,25,25,25,25,25,36,25,25,25,36,25,25,25,25,25,25,36,25,25,25,25,25,25,25,25,25,25,25,27,25,25,31,31,31,25,25,25,25,25,25,25,25,25,25,25,25,25,25,25,25,25,25,25,25,25,25,36,36,25,26,25,25,
   25,25,25,25,25,36,36,36,25,25,26,25,25,25,25,25,25,25,25,25,36,36,36,36,36,36,36,36,25,25,25,36,36,36,36,36,36,36,36,25,25,25,25,25,25,25,25,25,25,25,25,26,25,31,31,31,25,25,25,25,25,25,25,25,25,25,25,25,25,25,25,25,25,25,25,26,25,25,25,36,36,25,25,25,
   25,25,25,25,25,25,25,25,27,25,25,25,25,27,25,25,26,25,25,25,25,25,25,25,25,25,25,25,25,25,25,25,25,25,25,36,25,25,25,25,25,25,25,25,25,25,25,25,26,25,25,25,25,31,31,31,25,25,25,25,25,25,25,25,25,25,25,25,25,25,25,25,25,25,25,25,25,25,26,25,36,25,25,25,
   25,25,25,25,25,26,25,25,25,25,25,25,25,25,25,25,25,25,25,25,25,25,25,25,25,25,25,25,25,25,25,25,25,25,25,25,25,25,25,25,25,25,25,25,25,25,25,25,25,25,25,25,25,31,31,31,25,25,25,25,25,25,25,25,25,25,25,25,25,25,25,25,25,25,25,25,25,26,25,25,36,36,25,25,
   25,25,25,25,25,25,25,25,25,25,25,25,25,25,25,25,25,25,25,25,25,25,25,25,25,25,25,25,25,25,25,25,25,25,25,25,25,25,25,25,25,25,25,25,25,25,25,25,25,25,25,25,25,31,31,31,25,25,25,25,25,25,25,25,25,25,25,25,25,25,25,25,25,25,25,25,25,25,25,25,25,25,25,25,
   25,25,25,25,25,25,25,25,25,25,25,25,25,25,25,25,25,25,25,25,25,25,25,25,25,25,25,25,25,25,25,25,25,25,25,25,25,25,25,25,25,25,25,25,25,25,25,25,25,25,25,25,25,31,31,31,25,25,25,25,25,25,25,25,25,25,25,25,25,25,25,25,25,25,25,25,25,25,25,25,25,25,25,25,
   25,25,25,25,25,25,25,25,25,25,25,25,25,25,25,25,25,25,25,25,25,25,25,25,25,25,25,25,25,25,25,25,25,25,25,25,25,25,25,25,25,25,25,25,25,25,25,25,25,25,25,25,25,31,31,31,25,25,25,25,25,25,25,25,25,25,25,25,25,25,25,25,25,25,25,25,25,25,25,25,25,25,25,25,
   25,25,25,25,25,25,25,25,25,25,25,25,25,25,25,25,25,25,25,25,25,25,25,25,25,25,25,25,25,25,25,25,25,25,25,25,25,25,25,25,25,25,25,25,25,25,25,25,25,25,25,25,25,31,31,31,25,25,25,25,25,25,25,25,25,25,25,25,25,25,25,25,25,25,25,25,25,25,25,25,25,25,25,25,
   25,25,25,25,25,25,25,25,25,25,25,25,25,25,25,25,25,25,25,25,25,25,25,25,25,25,25,25,25,25,25,25,25,25,25,25,25,25,25,25,25,25,25,25,25,25,25,25,25,25,25,25,25,31,31,31,25,25,25,25,25,25,25,25,25,25,25,25,25,25,25,25,25,25,25,25,25,25,25,25,25,25,25,25,
   25,25,25,25,25,25,25,25,25,25,25,25,25,25,25,25,25,25,25,25,25,25,25,25,25,25,25,25,25,25,25,25,25,25,25,25,25,25,25,25,25,25,25,25,25,25,25,25,25,25,25,25,25,31,31,31,25,25,25,25,25,25,25,25,25,25,25,25,25,25,25,25,25,25,25,25,25,25,25,25,25,25,25,25
  ]
  },
  {
   "id": 2,
   "name": "deco",
   "type": "tilelayer",
   "x": 0,
   "y": 0,
   "width": 84,
   "height": 24,
   "opacity": 1,
   "visible": true,
   "data": [
   34,34,34,34,34,34,34,34,34,34,34,34,34,34,34,34,34,34,34,34,34,34,34,34,34,34,34,34,34,34,34,34,34,34,34,34,34,34,34,34,34,34,34,34,34,34,34,34,34,34,34,34,34,0,0,0,34,34,34,34,34,34,34,34,34,34,34,34,34,34,34,34,34,34,34,34,34,34,34,34,34,34,34,34,
   34,34,34,34,34,34,34,34,34,34,34,34,34,34,34,34,34,34,34,34,34,34,34,34,34,34,34,34,34,34,34,34,34,34,34,34,34,34,34,34,34,34,34,34,34,34,34,34,0,34,34,34,34,0,0,0,34,34,34,34,34,34,34,34,34,34,34,34,34,34,34,34,34,34,34,34,34,34,34,34,34,34,34,34,
   34,34,34,34,34,34,34,34,34,34,34,0,0,34,34,34,34,34,34,34,34,34,34,34,34,34,34,34,34,34,34,34,34,34,34,34,34,34,34,34,34,34,34,34,34,34,0,0,0,0,0,0,0,0,0,0,34,34,34,34,34,34,34,34,34,34,34,34,34,34,34,34,34,34,34,34,34,34,34,34,34,34,34,34,
   34,34,34,34,34,34,34,34,34,34,34,0,0,34,34,34,34,34,34,34,34,34,34,34,34,34,34,34,34,34,34,34,34,34,0,34,34,34,34,34,34,34,34,34,34,34,34,34,8,8,8,8,8,0,0,0,34,34,34,34,34,34,34,34,34,34,34,34,34,34,34,34,34,34,34,34,34,34,34,34,34,34,34,34,
   34,34,34,34,34,0,0,0,0,34,34,34,0,34,34,34,34,34,34,34,34,34,34,34,34,34,34,34,34,34,34,34,34,34,0,34,34,34,34,34,34,34,34,34,34,34,34,34,34,34,34,34,0,0,0,0,34,34,34,34,34,34,34,34,34,34,34,34,34,34,34,34,34,34,34,34,34,34,34,34,34,34,34,34,
   34,34,34,34,0,0,30,0,0,0,34,34,0,0,0,0,34,34,34,34,34,34,34,34,34,34,34,34,34,34,34,34,34,34,0,34,34,34,34,34,34,34,34,34,34,0,0,0,0,29,0,0,0,0,0,0,34,34,34,34,34,34,34,34,34,34,34,34,34,34,34,34,34,34,34,34,34,0,0,0,0,0,34,34,
   34,34,34,0,0,0,0,0,0,0,0,34,0,0,0,0,0,34,34,34,34,34,34,34,34,34,34,34,34,34,34,34,34,33,0,34,34,34,34,34,34,34,34,34,34,0,0,28,0,0,0,0,0,0,0,0,34,34,34,34,34,34,34,34,34,34,0,0,0,34,34,34,34,34,34,0,0,0,0,0,0,0,34,34,
   34,34,0,0,0,0,0,0,0,0,0,34,0,0,0,0,0,34,34,34,0,0,0,0,0,0,0,0,34,34,34,0,0,0,0,0,0,0,0,34,34,34,34,34,34,0,0,0,0,0,0,0,0,0,0,0,34,0,0,34,34,34,34,34,0,0,0,0,0,0,34,34,34,34,0,0,0,0,0,0,0,0,0,34,
   34,34,0,0,0,0,0,0,0,0,0,34,35,0,0,0,0,34,34,34,0,34,34,34,34,34,34,0,34,34,34,0,34,34,34,34,34,34,0,34,34,34,34,34,34,28,0,0,0,0,0,0,0,0,0,0,0,0,0,0,34,34,34,34,0,0,0,0,0,0,34,34,34,34,0,0,0,0,0,0,0,0,0,34,
   34,34,0,0,0,0,28,0,0,0,0,34,0,0,0,0,0,34,34,34,0,0,34,28,34,34,34,0,34,34,34,0,34,34,28,34,34,34,0,34,34,34,34,34,34,0,0,0,0,0,0,0,0,0,0,0,0,0,0,0,0,34,34,0,0,0,0,0,0,0,0,34,34,34,0,0,0,0,0,0,0,0,0,34,
   34,34,34,0,0,0,0,0,0,0,0,34,0,29,0,0,0,34,34,34,0,34,34,30,34,34,34,0,34,34,34,0,34,34,30,34,34,34,0,34,34,34,34,34,34,0,0,0,0,0,0,0,0,0,0,0,0,0,0,0,0,34,34,0,0,0,0,0,0,0,0,34,34,34,34,0,0,0,0,0,0,0,0,34,
   0,0,0,0,0,0,0,0,0,0,0,0,0,0,0,0,0,34,34,34,0,34,34,34,34,34,34,0,0,0,0,0,34,34,34,34,34,34,0,0,0,0,0,0,0,0,0,0,0,0,0,0,0,0,0,0,0,0,0,0,0,0,0,0,0,0,0,0,0,0,0,0,0,0,0,0,0,0,0,0,0,0,0,34,
   34,34,34,0,0,0,0,0,0,0,0,34,0,0,0,0,0,34,34,34,0,34,34,34,30,34,34,0,34,34,33,0,34,34,34,30,34,34,0,34,34,34,34,34,34,0,0,0,0,0,30,0,0,0,0,0,0,0,0,0,0,34,34,0,0,0,0,0,0,0,0,34,34,34,34,0,0,0,0,0,0,0,0,34,
   34,34,0,0,0,0,0,0,0,0,0,34,0,0,0,0,0,34,34,33,0,34,29,34,34,34,0,0,34,34,34,0,34,29,34,34,34,34,0,34,34,34,34,34,34,35,0,0,0,0,0,0,0,0,0,0,0,0,30,0,0,34,34,34,0,0,0,0,0,30,0,34,34,34,0,0,0,0,0,0,0,0,0,34,
   34,34,0,0,0,0,0,0,0,0,0,34,0,0,0,0,0,0,0,0,0,34,34,34,34,34,34,0,34,34,34,0,34,34,34,34,34,34,0,34,34,34,34,34,34,0,0,29,0,0,0,0,0,0,0,0,34,0,0,0,0,34,34,34,34,0,0,0,0,0,34,34,34,34,0,0,0,0,0,0,0,0,0,34,
   34,34,0,0,0,0,0,0,0,0,0,34,0,0,0,0,0,34,34,34,0,0,0,0,0,0,0,0,34,34,34,0,0,0,0,0,0,0,0,34,34,34,34,34,34,34,0,0,0,0,0,0,34,0,0,0,34,34,0,0,34,34,34,34,34,34,0,0,34,34,34,34,34,34,0,0,0,0,0,0,0,0,0,34,
   34,34,34,0,0,0,0,0,0,0,0,34,0,0,0,0,0,34,34,34,34,34,34,34,34,34,34,34,34,34,34,34,34,34,34,0,34,34,34,34,34,34,34,34,34,34,34,0,0,0,0,34,34,0,0,0,34,34,34,34,34,34,34,34,34,34,34,34,34,34,34,34,34,34,34,0,0,0,0,0,0,0,34,34,
   34,34,34,34,0,0,0,0,0,34,34,34,0,0,0,34,34,34,34,34,34,34,34,34,34,34,34,34,34,34,34,34,34,34,34,0,34,34,34,34,34,34,34,34,34,34,34,34,34,34,34,34,34,0,0,0,34,34,34,34,34,34,34,34,34,34,34,34,34,34,34,34,34,34,34,34,34,0,0,0,0,0,34,34,
   34,34,34,34,34,34,34,34,34,34,34,34,34,34,34,34,34,34,34,34,34,34,34,34,34,34,34,34,34,34,34,34,34,34,34,34,34,34,34,34,34,34,34,34,34,34,34,34,34,34,34,34,34,0,0,0,34,34,34,34,34,34,34,34,34,34,34,34,34,34,34,34,34,34,34,34,34,34,34,34,34,34,34,34,
   34,34,34,34,34,34,34,34,34,34,34,34,34,34,34,34,34,34,34,34,34,34,34,34,34,34,34,34,34,34,34,34,34,34,34,34,34,34,34,34,34,34,34,34,34,34,34,34,34,34,34,34,34,0,0,0,34,34,34,34,34,34,34,34,34,34,34,34,34,34,34,34,34,34,34,34,34,34,34,34,34,34,34,34,
   34,34,34,34,34,34,34,34,34,34,34,34,34,34,34,34,34,34,34,34,34,34,34,34,34,34,34,34,34,34,34,34,34,34,34,34,34,34,34,34,34,34,34,34,34,34,34,34,34,34,34,34,34,0,0,0,34,34,34,34,34,34,34,34,34,34,34,34,34,34,34,34,34,34,34,34,34,34,34,34,34,34,34,34,
   34,34,34,34,34,34,34,34,34,34,34,34,34,34,34,34,34,34,34,34,34,34,34,34,34,34,34,34,34,34,34,34,34,34,34,34,34,34,34,34,34,34,34,34,34,34,34,34,34,34,34,34,34,0,0,0,34,34,34,34,34,34,34,34,34,34,34,34,34,34,34,34,34,34,34,34,34,34,34,34,34,34,34,34,
   34,34,34,34,34,34,34,34,34,34,34,34,34,34,34,34,34,34,34,34,34,34,34,34,34,34,34,34,34,34,34,34,34,34,34,34,34,34,34,34,34,34,34,34,34,34,34,34,34,34,34,34,34,0,0,0,34,34,34,34,34,34,34,34,34,34,34,34,34,34,34,34,34,34,34,34,34,34,34,34,34,34,34,34,
   34,34,34,34,34,34,34,34,34,34,34,34,34,34,34,34,34,34,34,34,34,34,34,34,34,34,34,34,34,34,34,34,34,34,34,34,34,34,34,34,34,34,34,34,34,34,34,34,34,34,34,34,34,0,0,0,34,34,34,34,34,34,34,34,34,34,34,34,34,34,34,34,34,34,34,34,34,34,34,34,34,34,34,34
  ]
  },
  {
   "id": 3,
   "name": "collision",
   "type": "tilelayer",
   "x": 0,
   "y": 0,
   "width": 84,
   "height": 24,
   "opacity": 1,
   "visible": false,
   "data": [
   34,34,34,34,34,34,34,34,34,34,34,34,34,34,34,34,34,34,34,34,34,34,34,34,34,34,34,34,34,34,34,34,34,34,34,34,34,34,34,34,34,34,34,34,34,34,34,34,34,34,34,34,34,31,31,31,34,34,34,34,34,34,34,34,34,34,34,34,34,34,34,34,34,34,34,34,34,34,34,34,34,34,34,34,
   34,34,34,34,34,34,34,34,34,34,34,34,34,34,34,34,34,34,34,34,34,34,34,34,34,34,34,34,34,34,34,34,34,34,34,34,34,34,34,34,34,34,34,34,34,34,34,34,0,34,34,34,34,31,31,31,34,34,34,34,34,34,34,34,34,34,34,34,34,34,34,34,34,34,34,34,34,34,34,34,34,34,34,34,
   34,34,34,34,34,34,34,34,34,34,34,0,0,34,34,34,34,34,34,34,34,34,34,34,34,34,34,34,34,34,34,34,34,34,34,34,34,34,34,34,34,34,34,34,34,34,0,0,0,0,0,0,0,31,31,31,34,34,34,34,34,34,34,34,34,34,34,34,34,34,34,34,34,34,34,34,34,34,34,34,34,34,34,34,
   34,34,34,34,34,34,34,34,34,34,34,0,0,34,34,34,34,34,34,34,34,34,34,34,34,34,34,34,34,34,34,34,34,34,0,34,34,34,34,34,34,34,34,34,34,34,34,34,8,8,8,8,0,31,31,31,34,34,34,34,34,34,34,34,34,34,34,34,34,34,34,34,34,34,34,34,34,34,34,34,34,34,34,34,
   34,34,34,34,34,0,0,0,0,34,34,34,0,34,34,34,34,34,34,34,34,34,34,34,34,34,34,34,34,34,34,34,34,34,0,34,34,34,34,34,34,34,34,34,34,34,34,34,34,34,34,34,0,31,31,31,34,34,34,34,34,34,34,34,34,34,34,34,34,34,34,34,34,34,34,34,34,34,34,34,34,34,34,34,
   34,34,34,34,0,0,0,0,0,0,34,34,0,0,0,0,34,34,34,34,34,34,34,34,34,34,34,34,34,34,34,34,34,34,0,34,34,34,34,34,34,34,34,34,34,0,0,0,0,29,0,0,0,31,31,31,34,34,34,34,34,34,34,34,34,34,34,34,34,34,34,34,34,34,34,34,34,0,0,0,0,0,34,34,
   34,34,34,0,0,0,0,0,0,0,0,34,0,0,0,0,0,34,34,34,34,34,34,34,34,34,34,34,34,34,34,34,34,33,0,34,34,34,34,34,34,34,34,34,34,0,0,28,0,0,0,0,0,31,31,31,34,34,34,34,34,34,34,34,34,34,0,0,0,34,34,34,34,34,34,0,0,0,0,0,0,0,34,34,
   34,34,0,0,0,0,0,0,0,0,0,34,0,0,0,0,0,34,34,34,0,0,0,0,0,0,0,0,34,34,34,0,0,0,0,0,0,0,0,34,34,34,34,34,34,0,0,0,0,0,0,0,0,31,31,31,34,0,0,34,34,34,34,34,0,0,0,0,0,0,34,34,34,34,0,0,0,0,0,0,0,0,0,34,
   34,34,0,0,0,0,0,0,0,0,0,34,35,0,0,0,0,34,34,34,0,34,34,34,34,34,34,0,34,34,34,0,34,34,34,34,34,34,0,34,34,34,34,34,34,28,0,0,0,0,0,0,0,31,31,31,0,0,0,0,34,34,34,34,0,0,0,0,0,0,34,34,34,34,0,0,0,0,0,0,0,0,0,34,
   34,34,0,0,0,0,28,0,0,0,0,34,0,0,0,0,0,34,34,34,0,0,34,28,34,34,34,0,34,34,34,0,34,34,28,34,34,34,0,34,34,34,34,34,34,0,0,0,0,0,0,0,0,31,31,31,0,0,0,0,0,34,34,0,0,0,0,0,0,0,0,34,34,34,0,0,0,0,0,0,0,0,0,34,
   34,34,34,0,0,0,0,0,0,0,0,34,0,29,0,0,0,34,34,34,0,34,34,0,34,34,34,0,34,34,34,0,34,34,0,34,34,34,0,34,34,34,34,34,34,0,0,0,0,0,0,0,0,31,31,31,0,0,0,0,0,34,34,0,0,0,0,0,0,0,0,34,34,34,34,0,0,0,0,0,0,0,0,34,
   0,0,0,0,0,0,0,0,0,0,0,0,0,0,0,0,0,34,34,34,0,34,34,34,34,34,34,0,0,0,0,0,34,34,34,34,34,34,0,0,0,0,0,0,0,0,0,0,0,0,0,0,0,0,0,0,0,0,0,0,0,0,0,0,0,0,0,0,0,0,0,0,0,0,0,0,0,0,0,0,0,0,0,34,
   34,34,34,0,0,0,0,0,0,0,0,34,0,0,0,0,0,34,34,34,0,34,34,34,0,34,34,0,34,34,33,0,34,34,34,0,34,34,0,34,34,34,34,34,34,0,0,0,0,0,0,0,0,31,31,31,0,0,0,0,0,34,34,0,0,0,0,0,0,0,0,34,34,34,34,0,0,0,0,0,0,0,0,34,
   34,34,0,0,0,0,0,0,0,0,0,34,0,0,0,0,0,34,34,33,0,34,29,34,34,34,0,0,34,34,34,0,34,29,34,34,34,34,0,34,34,34,34,34,34,35,0,0,0,0,0,0,0,31,31,31,0,0,0,0,0,34,34,34,0,0,0,0,0,0,0,34,34,34,0,0,0,0,0,0,0,0,0,34,
   34,34,0,0,0,0,0,0,0,0,0,34,0,0,0,0,0,0,0,0,0,34,34,34,34,34,34,0,34,34,34,0,34,34,34,34,34,34,0,34,34,34,34,34,34,0,0,29,0,0,0,0,0,31,31,31,34,0,0,0,0,34,34,34,34,0,0,0,0,0,34,34,34,34,0,0,0,0,0,0,0,0,0,34,
   34,34,0,0,0,0,0,0,0,0,0,34,0,0,0,0,0,34,34,34,0,0,0,0,0,0,0,0,34,34,34,0,0,0,0,0,0,0,0,34,34,34,34,34,34,34,0,0,0,0,0,0,34,31,31,31,34,34,0,0,34,34,34,34,34,34,0,0,34,34,34,34,34,34,0,0,0,0,0,0,0,0,0,34,
   34,34,34,0,0,0,0,0,0,0,0,34,0,0,0,0,0,34,34,34,34,34,34,34,34,34,34,34,34,34,34,34,34,34,34,0,34,34,34,34,34,34,34,34,34,34,34,0,0,0,0,34,34,31,31,31,34,34,34,34,34,34,34,34,34,34,34,34,34,34,34,34,34,34,34,0,0,0,0,0,0,0,34,34,
   34,34,34,34,0,0,0,0,0,34,34,34,0,0,0,34,34,34,34,34,34,34,34,34,34,34,34,34,34,34,34,34,34,34,34,0,34,34,34,34,34,34,34,34,34,34,34,34,34,34,34,34,34,31,31,31,34,34,34,34,34,34,34,34,34,34,34,34,34,34,34,34,34,34,34,34,34,0,0,0,0,0,34,34,
   34,34,34,34,34,34,34,34,34,34,34,34,34,34,34,34,34,34,34,34,34,34,34,34,34,34,34,34,34,34,34,34,34,34,34,34,34,34,34,34,34,34,34,34,34,34,34,34,34,34,34,34,34,31,31,31,34,34,34,34,34,34,34,34,34,34,34,34,34,34,34,34,34,34,34,34,34,34,34,34,34,34,34,34,
   34,34,34,34,34,34,34,34,34,34,34,34,34,34,34,34,34,34,34,34,34,34,34,34,34,34,34,34,34,34,34,34,34,34,34,34,34,34,34,34,34,34,34,34,34,34,34,34,34,34,34,34,34,31,31,31,34,34,34,34,34,34,34,34,34,34,34,34,34,34,34,34,34,34,34,34,34,34,34,34,34,34,34,34,
   34,34,34,34,34,34,34,34,34,34,34,34,34,34,34,34,34,34,34,34,34,34,34,34,34,34,34,34,34,34,34,34,34,34,34,34,34,34,34,34,34,34,34,34,34,34,34,34,34,34,34,34,34,31,31,31,34,34,34,34,34,34,34,34,34,34,34,34,34,34,34,34,34,34,34,34,34,34,34,34,34,34,34,34,
   34,34,34,34,34,34,34,34,34,34,34,34,34,34,34,34,34,34,34,34,34,34,34,34,34,34,34,34,34,34,34,34,34,34,34,34,34,34,34,34,34,34,34,34,34,34,34,34,34,34,34,34,34,31,31,31,34,34,34,34,34,34,34,34,34,34,34,34,34,34,34,34,34,34,34,34,34,34,34,34,34,34,34,34,
   34,34,34,34,34,34,34,34,34,34,34,34,34,34,34,34,34,34,34,34,34,34,34,34,34,34,34,34,34,34,34,34,34,34,34,34,34,34,34,34,34,34,34,34,34,34,34,34,34,34,34,34,34,31,31,31,34,34,34,34,34,34,34,34,34,34,34,34,34,34,34,34,34,34,34,34,34,34,34,34,34,34,34,34,
   34,34,34,34,34,34,34,34,34,34,34,34,34,34,34,34,34,34,34,34,34,34,34,34,34,34,34,34,34,34,34,34,34,34,34,34,34,34,34,34,34,34,34,34,34,34,34,34,34,34,34,34,34,31,31,31,34,34,34,34,34,34,34,34,34,34,34,34,34,34,34,34,34,34,34,34,34,34,34,34,34,34,34,34
  ]
  },
  {
   "id": 4,
   "name": "objects",
   "type": "objectgroup",
   "draworder": "topdown",
   "x": 0,
   "y": 0,
   "opacity": 1,
   "visible": true,
   "objects": [
    {
     "id": 1,
     "name": "chest_hidden_grove",
     "type": "chest",
     "x": 768,
     "y": 16,
     "width": 16,
     "height": 16,
     "rotation": 0,
     "visible": true,
     "properties": [
      {
       "name": "gold",
       "type": "int",
       "value": 60
      },
      {
       "name": "dialogue",
       "type": "string",
       "value": "chest_hidden_grove"
      }
     ]
    },
    {
     "id": 2,
     "name": "m_P0202",
     "type": "monster",
     "x": 176,
     "y": 32,
     "width": 16,
     "height": 16,
     "rotation": 0,
     "visible": true,
     "properties": [
      {
       "name": "problem",
       "type": "string",
       "value": "P0202"
      }
     ]
    },
    {
     "id": 3,
     "name": "m_P0208",
     "type": "monster",
     "x": 736,
     "y": 32,
     "width": 16,
     "height": 16,
     "rotation": 0,
     "visible": true,
     "properties": [
      {
       "name": "problem",
       "type": "string",
       "value": "P0208"
      }
     ]
    },
    {
     "id": 4,
     "name": "m_P0205",
     "type": "monster",
     "x": 544,
     "y": 48,
     "width": 16,
     "height": 16,
     "rotation": 0,
     "visible": true,
     "properties": [
      {
       "name": "problem",
       "type": "string",
       "value": "P0205"
      }
     ]
    },
    {
     "id": 5,
     "name": "sign_forest",
     "type": "sign",
     "x": 64,
     "y": 96,
     "width": 16,
     "height": 16,
     "rotation": 0,
     "visible": true,
     "properties": [
      {
       "name": "dialogue",
       "type": "string",
       "value": "sign_forest"
      }
     ]
    },
    {
     "id": 6,
     "name": "rune_L2-1",
     "type": "rune",
     "x": 128,
     "y": 112,
     "width": 16,
     "height": 16,
     "rotation": 0,
     "visible": true,
     "properties": [
      {
       "name": "lesson",
       "type": "string",
       "value": "L2-1"
      }
     ]
    },
    {
     "id": 7,
     "name": "npc_woodcutter",
     "type": "npc",
     "x": 736,
     "y": 112,
     "width": 16,
     "height": 16,
     "rotation": 0,
     "visible": true,
     "properties": [
      {
       "name": "dialogue",
       "type": "string",
       "value": "npc_woodcutter"
      },
      {
       "name": "sprite",
       "type": "string",
       "value": "npc_woodcutter"
      }
     ]
    },
    {
     "id": 8,
     "name": "rune_L2-3",
     "type": "rune",
     "x": 784,
     "y": 112,
     "width": 16,
     "height": 16,
     "rotation": 0,
     "visible": true,
     "properties": [
      {
       "name": "lesson",
       "type": "string",
       "value": "L2-3"
      }
     ]
    },
    {
     "id": 9,
     "name": "rune_L2-4",
     "type": "rune",
     "x": 928,
     "y": 128,
     "width": 16,
     "height": 16,
     "rotation": 0,
     "visible": true,
     "properties": [
      {
       "name": "lesson",
       "type": "string",
       "value": "L2-4"
      }
     ]
    },
    {
     "id": 10,
     "name": "rune_L2-2",
     "type": "rune",
     "x": 336,
     "y": 144,
     "width": 16,
     "height": 16,
     "rotation": 0,
     "visible": true,
     "properties": [
      {
       "name": "lesson",
       "type": "string",
       "value": "L2-2"
      }
     ]
    },
    {
     "id": 11,
     "name": "campfire_stream",
     "type": "campfire",
     "x": 912,
     "y": 144,
     "width": 16,
     "height": 16,
     "rotation": 0,
     "visible": true,
     "properties": []
    },
    {
     "id": 12,
     "name": "board_shadow_r02",
     "type": "board",
     "x": 960,
     "y": 144,
     "width": 16,
     "height": 16,
     "rotation": 0,
     "visible": true,
     "properties": []
    },
    {
     "id": 13,
     "name": "warp_west",
     "type": "warp",
     "x": 0,
     "y": 176,
     "width": 16,
     "height": 16,
     "rotation": 0,
     "visible": true,
     "properties": [
      {
       "name": "target",
       "type": "string",
       "value": "r01"
      },
      {
       "name": "targetSpawn",
       "type": "string",
       "value": "warp_east"
      }
     ]
    },
    {
     "id": 14,
     "name": "spawn_west",
     "type": "spawn",
     "x": 16,
     "y": 176,
     "width": 16,
     "height": 16,
     "rotation": 0,
     "visible": true,
     "properties": []
    },
    {
     "id": 15,
     "name": "t_forest_intro",
     "type": "trigger",
     "x": 32,
     "y": 176,
     "width": 16,
     "height": 16,
     "rotation": 0,
     "visible": true,
     "properties": [
      {
       "name": "dialogue",
       "type": "string",
       "value": "forest_intro"
      },
      {
       "name": "once",
       "type": "bool",
       "value": true
      }
     ]
    },
    {
     "id": 16,
     "name": "m_P0201",
     "type": "monster",
     "x": 176,
     "y": 176,
     "width": 16,
     "height": 16,
     "rotation": 0,
     "visible": true,
     "properties": [
      {
       "name": "problem",
       "type": "string",
       "value": "P0201"
      }
     ]
    },
    {
     "id": 17,
     "name": "m_P0204",
     "type": "monster",
     "x": 464,
     "y": 176,
     "width": 16,
     "height": 16,
     "rotation": 0,
     "visible": true,
     "properties": [
      {
       "name": "problem",
       "type": "string",
       "value": "P0204"
      }
     ]
    },
    {
     "id": 18,
     "name": "m_P0206",
     "type": "monster",
     "x": 688,
     "y": 176,
     "width": 16,
     "height": 16,
     "rotation": 0,
     "visible": true,
     "properties": [
      {
       "name": "problem",
       "type": "string",
       "value": "P0206"
      }
     ]
    },
    {
     "id": 19,
     "name": "m_P0207",
     "type": "monster",
     "x": 848,
     "y": 176,
     "width": 16,
     "height": 16,
     "rotation": 0,
     "visible": true,
     "properties": [
      {
       "name": "problem",
       "type": "string",
       "value": "P0207"
      }
     ]
    },
    {
     "id": 20,
     "name": "m_P0209",
     "type": "monster",
     "x": 1136,
     "y": 176,
     "width": 16,
     "height": 16,
     "rotation": 0,
     "visible": true,
     "properties": [
      {
       "name": "problem",
       "type": "string",
       "value": "P0209"
      }
     ]
    },
    {
     "id": 21,
     "name": "t_boss_intro",
     "type": "trigger",
     "x": 1152,
     "y": 176,
     "width": 16,
     "height": 16,
     "rotation": 0,
     "visible": true,
     "properties": [
      {
       "name": "dialogue",
       "type": "string",
       "value": "boss_intro"
      },
      {
       "name": "once",
       "type": "bool",
       "value": true
      }
     ]
    },
    {
     "id": 22,
     "name": "m_P0210",
     "type": "monster",
     "x": 1184,
     "y": 176,
     "width": 16,
     "height": 16,
     "rotation": 0,
     "visible": true,
     "properties": [
      {
       "name": "problem",
       "type": "string",
       "value": "P0210"
      }
     ]
    },
    {
     "id": 23,
     "name": "warp_east",
     "type": "warp",
     "x": 1312,
     "y": 176,
     "width": 16,
     "height": 16,
     "rotation": 0,
     "visible": true,
     "properties": [
      {
       "name": "requires",
       "type": "string",
       "value": "problem:P0210"
      },
      {
       "name": "lockedDialogue",
       "type": "string",
       "value": "east_gate_locked"
      },
      {
       "name": "openDialogue",
       "type": "string",
       "value": "to_be_continued"
      },
      {
       "name": "target",
       "type": "string",
       "value": "r03"
      },
      {
       "name": "targetSpawn",
       "type": "string",
       "value": "spawn_west"
      }
     ]
    },
    {
     "id": 24,
     "name": "campfire_entrance",
     "type": "campfire",
     "x": 112,
     "y": 208,
     "width": 16,
     "height": 16,
     "rotation": 0,
     "visible": true,
     "properties": []
    },
    {
     "id": 25,
     "name": "sign_loop",
     "type": "sign",
     "x": 416,
     "y": 208,
     "width": 16,
     "height": 16,
     "rotation": 0,
     "visible": true,
     "properties": [
      {
       "name": "dialogue",
       "type": "string",
       "value": "sign_loop"
      }
     ]
    },
    {
     "id": 26,
     "name": "m_P0203",
     "type": "monster",
     "x": 272,
     "y": 224,
     "width": 16,
     "height": 16,
     "rotation": 0,
     "visible": true,
     "properties": [
      {
       "name": "problem",
       "type": "string",
       "value": "P0203"
      }
     ]
    },
    {
     "id": 27,
     "name": "npc_lost_traveler",
     "type": "npc",
     "x": 368,
     "y": 240,
     "width": 16,
     "height": 16,
     "rotation": 0,
     "visible": true,
     "properties": [
      {
       "name": "dialogue",
       "type": "string",
       "value": "npc_lost_traveler"
      },
      {
       "name": "sprite",
       "type": "string",
       "value": "npc_traveler"
      }
     ]
    },
    {
     "id": 28,
     "name": "chest_loop",
     "type": "chest",
     "x": 560,
     "y": 272,
     "width": 16,
     "height": 16,
     "rotation": 0,
     "visible": true,
     "properties": [
      {
       "name": "gold",
       "type": "int",
       "value": 40
      },
      {
       "name": "dialogue",
       "type": "string",
       "value": "chest_loop"
      }
     ]
    }
   ]
  }
 ]
}
